!!!!SEGMENT: pl-wtm--r-2010_smietanski-emil-wladyslaw--fantaisie-sur-le-krakowiak.krn
!!!cenid: 18xx:1970
!!!COM: Śmietański, Emil Władysław
!!!COM-rismID: pe50041781
!!!CDT: 1845-1886
!!!CNT: Polish
!!!OTL: Fantaisie sur le Krakowiak
!!!PDT: 1866
!!!AGN: Secular; Fantasy; Cracow
!!!SMS-siglum: PL-Wtm
!!!SMS-shelfmark: R 2010
!!!SMS-shelfwork: W
!!!SMS-variant:
!!!SMS-altvar:
!!!NIFC-rismSourceID: 1001111534
!!!NIFC-rismChildID: 1001111534
!!!NIFC-islandoraID: pl-wtm:29391
!!!URL-pdf-islandora: https://repozytorium.nifc.pl/islandora/object/pl-wtm%3A29391/datastream/PDF/view
!!!URL-scan: https://polish.musicsources.pl/pl/lokalizacje/galeria/rekopisy/6503 @EN{Scan on Polish Music Sources Website} @PL{Skany w portalu Dziedzictwo Muzyki Polskiej w otwartym dostępie}
!!!IIIF:
!!!ONB-nifc:
!!!AIN: 1 forte 1 piano
!!!key:
**kern	**kern	**dynam
*part2	*part1	*part1
*staff2	*staff1	*
*Ipiano	*Iforte	*
*I"Piano	*I"Fortepian	*
*	*I'pf	*
*clefF4	*clefG2	*
*k[b-e-a-]	*k[b-e-a-]	*
*E-:	*E-:	*
*M4/4	*M4/4	*
*met(c)	*met(c)	*
*>[A,B,B,C,C,D,D,E,E,F,G,G1,G,G2,H,H1,H,H2,I]	*	*
=1	=1	=1
*>A	*	*
!	!LO:TX:rj:a:B:t=Grave.	!LO:DY:rj
32qqEE-\	16qqE-/	ff
4EE-\ 4EEE-\	4E-/	.
4r	4ryy	.
16qqe-\ 16qqB-\ 16qqE-\	16qqgg\ 16qqee-\ 16qqg\	.
4e-\ 4B-\ 4E-\	4gg\ 4ee-\ 4g\	.
4r	4r	.
=2	=2	=2
32qqDD\ 32qqDDD\	16qqD</	.
4DD\ 4DDD\	4D</	.
4r	4ryy	.
16qqd\ 16qqB-\ 16qqD\	16qqbb-\ 16qqff\ 16qqb-\	.
4d\ 4B-\ 4D\	4bb-\ 4ff\ 4b-\	.
4r	4r	.
=3	=3	=3
4.C/ 4.CC/ 4.CCC/	4.eee-\ 4.gg\ 4.ee-\	.
8C/ 8DD/ 8EEE-/	8bb-\ 8ff\ 8b-\	.
4E-/ 4EE-/ 4EEE-/	4gg\ 4ee-\ 4g\	.
4G/ 4GG/ 4GGG/	4ee-\ 4b-\ 4e-\	.
=4	=4	=4
2B-/ 2BB-/ 2BBB-/	[2bb-\ 2ee-\ [2f\	.
4r	4bb-\] 4dd\ 4f\]	.
8AA-\L 8AAA-\	8A-</L	.
8GG\J 8GGG\	8G</J	.
=5	=5	=5
32qqFF\ 32qqFFF\	16qqF</	.
4FF\ 4FFF\	4F</	.
4r	4ryy	.
16qqf\ 16qqc\ 16qqF\	16qqaa-\ 16qqcc\ 16qqa-\	.
4f\ 4c\ 4F\	4aa-\ 4cc\ 4a-\	.
4r	4r	.
=6	=6	=6
32qqEEn\ 32qqEEEn\	16qqEn</	.
4EE\ 4EEE\	4E</	.
4r	4ryy	.
!!LO:LB:g=original
16qqen\ 16qqB-\ 16qqEn\	16qqccc\ 16qqgg\ 16qqcc\	.
4e\ 4B-\ 4E\	4ccc\ 4gg\ 4cc\	.
4r	4r	.
=7	=7	=7
4.F/ 4.FF/ 4.DDD/	4.fff\ 4.aa-\ 4.ff\	.
8G/ 8GG/ 8GGG/	8ccc\ 8ff\ 8cc\	.
4A-/ 4AA-/ 4AAA-/	4aa-\ 4cc\ 4a-\	.
4c/ 4C/ 4CC/	4ff\ 4a-\ 4e-\	.
=8	=8	=8
4B-/ 4BB-/ 4BBB-/	2..ff\ 2..a-\ 2..d\	.
*tremolo	*	*
!LO:TX:a:t=trem.	!	!
64BBBB-/LLLL	.	.
64BBB-/	.	.
64BBBB-/	.	.
64BBB-/	.	.
64BBBB-/	.	.
64BBB-/	.	.
64BBBB-/	.	.
64BBB-/	.	.
64BBBB-/	.	.
64BBB-/	.	.
64BBBB-/	.	.
64BBB-/	.	.
64BBBB-/	.	.
64BBB-/	.	.
64BBBB-/	.	.
64BBB-/	.	.
64BBBB-/	.	.
64BBB-/	.	.
64BBBB-/	.	.
64BBB-/	.	.
64BBBB-/	.	.
64BBB-/	.	.
64BBBB-/	.	.
64BBB-/	.	.
64BBBB-/	.	.
64BBB-/	.	.
64BBBB-/	.	.
64BBB-/	.	.
64BBBB-/	.	.
64BBB-/	.	.
64BBBB-/	.	.
64BBB-/	.	.
64BBBB-/	.	.
64BBB-/	.	.
64BBBB-/	.	.
64BBB-/	.	.
64BBBB-/	.	.
64BBB-/	.	.
64BBBB-/	.	.
64BBB-/	.	.
64BBBB-/	8ee-\ 8e-\	.
64BBB-/	.	.
64BBBB-/	.	.
64BBB-/	.	.
64BBBB-/	.	.
64BBB-/	.	.
64BBBB-/	.	.
64BBB-/JJJJ	.	.
*Xtremolo	*	*
=9	=9	=9
2E-/ 2EE-/ 2EEE-/	2ee-\ 2g\ 2e-\	.
2r;	2r;	.
=10||	=10||	=10||
*Xtuplet	*	*
!	!LO:TX:a:i:t=Con passione	!LO:DY:t=mezzo forte
12CC/L	4.ee-\ 4.cc\ 4.e-\	mf
12GG/	.	.
12C/J	.	.
12C\L	.	.
12G\	.	.
.	8ff\ 8f\	.
12d\J	.	.
12e-\L	8gg\L 8g\	.
12G\	.	.
.	8aa-\J 8cc\ 8a-\	.
12F\J	.	.
12E-\L	8gg\L 8g\	.
12GG\	.	.
.	8ff#X\J 8cc\ 8f#X\	.
12D\J	.	.
=11	=11	=11
12CC/L	4gg\ 4g\	.
12GG/	.	.
12C/J	.	.
12C\L	4eee-\ 4gg\ 4ee-\	>
12G\	.	.
12e-\J	.	.
12d\L	4bbn\ 4ff\ 4bn\	.
12A-\	.	.
12C\J	.	.
12E-\L	4ccc\ 4ee-\ 4cc\	]
12GG\	.	.
12CC\J	.	.
!!LO:LB:g=original
=12	=12	=12
12FF\L	4.aa-\ 4.ff\ 4.a-\	.
12C\	.	.
12F\J	.	.
12F\L	.	.
12c\	.	.
.	8bb-\ 8b-\	.
12g\J	.	.
12a-\L	8ccc\L 8cc\	.
12c\	.	.
.	8ddd-X\J 8ff\ 8dd-X\	.
12B-\J	.	.
12A-\L	8ccc\L 8cc\	.
12C\	.	.
.	8bbn\J 8ff\ 8bn\	.
12G\J	.	.
=13	=13	=13
12FF\L	4ccc\ 4cc\	<
12C\	.	.
12A-\J	.	.
12F\L	4aaa-\ 4ccc\ 4aa-\	[ >
12c\	.	.
12a-\J	.	.
12g\L	4eeen\ 4bb-\ 4een\	]
12d-X\	.	.
12F\J	.	.
12A-\L	4fff\ 4aa-\ 4ff\	.
12C\	.	.
12FF\J	.	.
=14	=14	=14
12DDn\L	4.fff\ 4.aa-\ 4.ff\	.
12AA-\	.	.
12F\J	.	.
12Dn\L	.	.
12A-\	.	.
.	8eee-\ 8ee-\	.
12f\J	.	.
12f\L	4ddd\ 4aa-\ 4dd\	.
12A-\	.	.
12D\J	.	.
12F\L	4ccc\ 4aa-\ 4cc\	.
12AA-\	.	.
12DD\J	.	.
=15	=15	=15
!	!	!LO:TX:b:t=creſcendo:dur=6q:problem=text with extention line
12DD\L	4ccc\ 4gg\ 4cc\	<
12GG\	.	.
12F\J	.	.
12D\L	2bbn\ 2gg\ 2bn\	.
12G\	.	.
12f\J	.	.
12f\L	.	.
12G\	.	.
12D\J	.	.
12F\L	4bb\ 4b\	.
12GG\	.	.
12DD\J	.	.
=16	=16	=16
12CC\L	8ccc\L 8cc\	.
12GG\	.	.
.	8eee-\J 8ee-\	.
12C\J	.	.
12C\L	8ddd\L 8gg\ 8dd\	.
12G\	.	.
.	8eee-\J 8ee-\	.
12c\J	.	.
12A-\L	8fff\L 8ccc\ 8ff\	.
12F\	.	.
.	8eee-\J 8ee-\	.
12C\J	.	.
12E-\L	8ddd\L 8dd\	.
12FF#X\	.	.
.	8ccc\J 8cc\	.
12AAA-\J	.	.
!!LO:LB:g=originals
=17	=17	=17
12GGG/L	4ccc\ 4cc\	>
12GG/	.	.
12D/J	.	.
12G\L	2bbn\ 2bn\	.
12D\	.	.
12G\J	.	.
12d\L	.	.
12G\	.	.
12d\J	.	.
12g\L	4bb\ 4b\	]]
12d\	.	.
12g\J	.	.
=18	=18	=18
12e-\L	4.ccc\ 4.cc\	pp
12g\	.	.
12e-\J	.	.
12d\L	.	.
12f\	.	.
.	8bb-\ 8b-\	.
12d\J	.	.
12c\L	4aan\ 4an\	.
12e-\	.	.
12c\J	.	.
12B-\L	4gg\ 4g\	.
12d\	.	.
12B-\J	.	.
=19	=19	=19
12DD/L	4gg\ 4g^<\	.
12AAn/	.	.
12E-/J	.	.
12D\L	2ff#X\ 2cc\ 2f#X\	.
12An\	.	.
12e-\J	.	.
12d\L	.	.
12A\	.	.
12D\J	.	.
12D\L	4ff#\ 4f#\	.
12AA\	.	.
12DD\J	.	.
=20	=20	=20
12EE-/L	8gg\L 8g\	.
12BB-/	.	.
.	8bb-\ 8b-\	.
12G/J	.	.
12E-\L	8aan\ 8an\	.
12B-\	.	.
.	8bb-\J 8b-\	.
12f#X\J	.	.
12g\L	8eee-\L 8ee-\	.
12B-\	.	.
.	8bb-\ 8b-\	.
12E-\J	.	.
12G\L	8aa\ 8a\	.
12C#X\	.	.
.	8gg\J 8g\	.
12EE-\J	.	.
=21	=21	=21
12DD/L	4gg\ 4g^<\	.
12AAn/	.	.
12E-/J	.	.
12D\L	2ff#X\ 2cc\ 2f#X\	.
12An\	.	.
12e-\J	.	.
12d\L	.	.
12A\	.	.
12D\J	.	.
12D\L	4ff#\ 4f#\	.
12AA\	.	.
12DD\J	.	.
=22	=22	=22
12DD/L	4ff#X\ 4f#X^<\	.
12AA-X/	.	.
12E-/J	.	.
12D\L	2ffn\ 2cc\ 2fn\	.
12A-X\	.	.
12e-\J	.	.
12d\L	.	.
12A-\	.	.
12D\J	.	.
12D\L	4ff\ 4f\	.
12AA-\	.	.
12DD\J	.	.
!!LO:LB:g=original
=23	=23	=23
12GGG/L	[1ff\ [1bn\ [1f\	<
12GG/	.	.
12D/J	.	.
12G\L	.	.
12D\	.	.
12G\J	.	.
12d\L	.	.
12G\	.	.
12d\J	.	.
12g\L	.	.
12d\	.	.
12g\J	.	.
=24	=24	=24
12d\L	2ff\] 2bnX\] 2f\]	.
12G\	.	.
12d\J	.	.
12G\L	.	.
12D\	.	.
12G\J	.	.
12D\L	2r	[[
12GG\	.	.
12D\J	.	.
12GG/L	.	.
12DD/	.	.
12GG/J	.	.
=25	=25	=25
12CC/L	4.ee-\ 4.cc\ 4.e-\	f
12GG/	.	.
12C/J	.	.
12C\L	.	.
12G\	.	.
.	8ff\ 8f\	.
12d\J	.	.
12e-\L	8gg\L 8g\	.
12G\	.	.
.	8aa-\ 8cc\ 8a-\	.
12F\J	.	.
12E-\L	8gg\ 8g\	.
12GG\	.	.
.	8ff#X\J 8cc\ 8f#X\	.
12D\J	.	.
=26	=26	=26
12CC/L	4gg\ 4g\	.
12GG/	.	.
12E-/J	.	.
12C\L	4eee-\ 4gg\ 4ee-\	.
12G\	.	.
12e-\J	.	.
12d\L	4bbn\ 4ff\ 4bn\	.
12A-\	.	.
12C\J	.	.
12E-/L	4ccc\ 4ee-\ 4cc\	.
12GG/	.	.
12CC\J	.	.
=27	=27	=27
!LO:TX:t=P:problem=mixed beam	!	!
12AAA-/L	4.ccc\ 4.aa-\ 4.cc\	pp
12E-/	.	.
12A-/J	.	.
12A-\L	.	.
12e-\	.	.
.	8ddd-X\ 8dd-X\	.
12b-\J	.	.
12cc\L	8eee-\L 8ee-\	.
12e-\	.	.
.	8fff\ 8aa-\ 8ff\	.
12d-X\J	.	.
12c\L	8eee-\ 8ee-\	.
12E-\	.	.
.	8dddn\J 8aa-\ 8ddn\	.
12Bn\J	.	.
!!LO:LB:g=original
=28	=28	=28
12AA-\L	4eee-\ 4ee-\	.
12E-\	.	.
12c\J	.	.
*	*8va	*
12A-\L	4cccc\ 4eee-\ 4ccc\	.
12e-\	.	.
12cc\J	.	.
*	*X8va	*
12b-\L	4ggg\ 4ddd-X\ 4gg\	.
12f-X\	.	.
12A-\J	.	.
12c\L	4aaa-\ 4ccc\ 4aa-\	.
12E-X\	.	.
12AA-\J	.	.
=29	=29	=29
12FF\L	4.aaa-\ 4.ccc\ 4.aa-\	<
12C\	.	.
12A-\J	.	.
12F\L	.	.
12c\	.	.
.	8ggg\ 8gg\	.
12a-\J	.	.
12a-\L	4fff\ 4ff\	.
12c\	.	.
12F\J	.	.
12A-\L	4eee-\ 4aa-\ 4ee-^<\	.
12C\	.	.
12FF\J	.	.
=30	=30	=30
12FFF\L	4eee-\ 4ee-\	.
12BBn\	.	.
12G\J	.	.
12F\L	2ddd\ 2gg\ 2dd\	.
12Bn\	.	.
12g\J	.	.
12g\L	.	.
12B\	.	.
12F\J	.	.
12G\L	4ddd\ 4gg\ 4dd\	.
12BB\	.	.
12FF\J	.	.
=31	=31	=31
12EE-\L	4.ggg\ 4.bbn\ 4.gg\	.
12BBn\	.	.
12G\J	.	.
12E-\L	.	.
12Bn\	.	.
.	8fff\ 8ff\	.
12g\J	.	.
12g\L	4eee-\ 4ee-\	.
12B\	.	.
12E-\J	.	.
12G\L	4ddd\ 4gg\ 4dd^<\	.
12BB\	.	.
12EE-\J	.	.
=32	=32	=32
12EEE-\L	4ddd\ 4dd\	.
12AA-\	.	.
12G\J	.	.
12E-\L	2ccc\ 2gg\ 2cc\	.
12c\	.	.
12g\J	.	.
12g\L	.	.
12c\	.	.
12E-\J	.	.
12G\L	4ccc\ 4gg\ 4cc\	[[
12C\	.	.
12EE-\J	.	.
=33	=33	=33
12DD/L	4.fff\ 4.aa-\ 4.ff\	<
12AA-/	.	.
12F/J	.	.
12D\L	.	.
12A-\	.	.
.	8eee-\ 8ee-\	.
12f\J	.	.
12f\L	4ddd\ 4aa-\ 4dd;\	.
12A-\	.	.
12D\J	.	.
12F\L	4ccc\ 4aa-\ 4cc;\	.
12AA-\	.	.
12DD\J	.	.
!!LO:PB:g=original
=34	=34	=34
12DDD/L	4.fff#X\ 4.aa-\ 4.ff#X\	.
12AA-/	.	.
12F#X/J	.	.
12D\L	.	.
12A-\	.	.
.	8eee-\ 8aa-\ 8ee-\	.
12f#X\J	.	.
12f#\L	(4ddd\ 4aa-\ 4dd'\	.
12A-\	.	.
12D\J	.	.
12F#\L	4ccc\ 4aa-\ 4cc'\)	[[
12AA-\	.	.
12DD\J	.	.
=35	=35	=35
12GGG/L	1ggg\ 1ccc\ 1gg\	>
12GG/	.	.
12D/J	.	.
12G\L	.	.
12D\	.	.
12G\J	.	.
12d\L	.	.
12G\	.	.
12d\J	.	.
12g\L	.	.
12d\	.	.
12g\J	.	.
=36	=36	=36
12d\L	1bbn\ 1ff\ 1bn\	]]
12G\	.	.
12d\J	.	.
12G\L	.	.
12D\	.	.
12G\J	.	.
12D\L	.	.
12GG\	.	.
12D\J	.	.
12GG/L	.	.
12DD/	.	.
12GG\J	.	.
=37	=37	=37
*	*Xtuplet	*
!LO:TX:t=P:problem=mixed beam	!	!
12CC/L	12ccc\L 12cc\	p
12c\ 12G\ 12C\	12ee-\ 12cc\ 12e-\	.
12c\J 12G\ 12C\	12ee-\J 12cc\ 12e-\	.
12c\L 12G\ 12C\	12ee-\L 12cc\ 12e-\	.
12c\ 12G\ 12C\	12ee-\ 12cc\ 12e-\	.
12d\J 12G\ 12C\	12ff\J 12cc\ 12f\	.
12e-\L 12G\ 12C\	12gg\L 12cc\ 12g\	.
12e-\ 12G\ 12C\	12gg\ 12cc\ 12g\	.
12f\J 12A-\ 12C\	12aa-\J 12cc\ 12a-\	.
12e-\L 12G\ 12C\	12gg\L 12cc\ 12g\	.
12e-\ 12G\ 12C\	12gg\ 12cc\ 12g\	.
12d/J 12G/ 12C/	12ff#X\J 12cc\ 12f#X\	.
!!LO:PB:g=original
=38	=38	=38
!LO:TX:t=P:problem=mixed beam	!	!
12CC/L	12gg\L 12cc\ 12g\	p
12e-\ 12G\ 12C\	12gg\ 12cc\ 12g\	.
12e-\J 12G\ 12C\	12gg\J 12cc\ 12g\	.
12e-\L 12G\ 12C\	12eee-\L 12gg\ 12ee-\	.
12e-\ 12G\ 12C\	12eee-\ 12gg\ 12ee-\	.
12e-\J 12G\ 12C\	12eee-\J 12gg\ 12ee-\	.
12f\L 12A-\ 12C\	12bbn\L 12ff\ 12bn\	.
12f\ 12A-\ 12C\	12bb\ 12ff\ 12b\	.
12f\J 12A-\ 12C\	12bb\J 12ff\ 12b\	.
12e-\L 12G\ 12C\	12ccc\L 12ee-\ 12cc\	.
12e-/ 12G/ 12C/	12ccc\ 12ee-\ 12cc\	.
12e-\J 12G\ 12C\	12ccc\J 12ee-\ 12cc\	.
=39	=39	=39
!LO:TX:t=P:problem=mixed beam	!	!
12EE-/L	12r	.
12e-\ 12B-\ 12E-\	12gg\L 12ee-\ 12g\	.
12e-\J 12B-\ 12E-\	12gg\J 12ee-\ 12g\	.
12e-\L 12B-\ 12E-\	12gg\L 12ee-\ 12g\	.
12e-\ 12B-\ 12E-\	12gg\ 12ee-\ 12g\	.
12f\J 12B-\ 12E-\	12aa-\J 12ee-\ 12a-\	.
12g\L 12B-\ 12E-\	12bb-\L 12ee-\ 12b-\	.
12g\ 12B-\ 12E-\	12bb-\ 12ee-\ 12b-\	.
12a-\J 12B-\ 12E-\	12ccc\J 12ee-\ 12cc\	.
12g\L 12B-\ 12E-\	12bb-\L 12ee-\ 12b-\	.
12g\ 12B-\ 12E-\	12bb-\ 12ee-\ 12b-\	.
12f#X\J 12B-\ 12E-\	12aan\J 12ee-\ 12an\	.
=40	=40	=40
!LO:TX:t=P:problem=mixed beam	!	!
12EE-/L	12bb-\L 12ee-\ 12b-\	.
12g\ 12B-\ 12E-\	12bb-\ 12ee-\ 12b-\	.
12g\J 12B-\ 12E-\	12bb-\J 12ee-\ 12b-\	.
12g\L 12B-\ 12E-\	12ggg\L 12eee-\ 12gg\	.
12g\ 12B-\ 12E-\	12ggg\ 12eee-\ 12gg\	.
12g\J 12B-\ 12E-\	12ggg\J 12eee-\ 12gg\	.
12a-\L 12c-X\ 12E-\	12ddd\L 12ccc-X\ 12dd\	.
12a-\ 12c-\ 12E-\	12ddd\ 12ccc-\ 12dd\	.
12a-\J 12c-\ 12E-\	12ddd\J 12ccc-\ 12dd\	.
12g\L 12B-\ 12E-\	12eee-\L 12bb-\ 12ee-\	.
12g/ 12B-/ 12E-/	12eee-\ 12bb-\ 12ee-\	.
12g\J 12B-\ 12E-\	12eee-\J 12bb-\ 12ee-\	.
=41	=41	=41
!LO:TX:t=P:problem=mixed beam	!	!
12GG/L	12r	.
12g\ 12d\ 12G\	12bb-\L 12gg\ 12b-\	.
12g\J 12d\ 12G\	12bb-\J 12gg\ 12b-\	.
12g\L 12d\ 12G\	12bb-\L 12gg\ 12b-\	.
12g\ 12d\ 12G\	12bb-\ 12gg\ 12b-\	.
12an\J 12d\ 12G\	12ccc\J 12gg\ 12cc\	.
12b-\L 12d\ 12G\	12ddd\L 12gg\ 12dd\	<
12b-\ 12d\ 12G\	12ddd\ 12gg\ 12dd\	.
12b-\J 12d\ 12G\	12bbb-\J 12ddd\ 12bb-\	.
12cc\L 12e-\ 12G\	12fff#X\L 12eee-\ 12ff#X\	[ >
12cc\ 12e-\ 12G\	12fff#\ 12eee-\ 12ff#\	.
12b-\J 12e-\ 12G\	12ggg\J 12ddd\ 12gg\	]]
!!LO:PB:g=original
=42	=42	=42
!LO:TX:t=P:problem=mixed beam	!	!
12GG/L	12r	.
12g\ 12d\ 12G\	12bb-\L 12gg\ 12b-\	.
12g\J 12d\ 12G\	12bb-\J 12gg\ 12b-\	.
12g\L 12d\ 12G\	12bb-\L 12gg\ 12b-\	.
12g\ 12d\ 12G\	12bb-\ 12gg\ 12b-\	.
12an\J 12d\ 12G\	12ccc\J 12gg\ 12cc\	.
12b-\L 12d\ 12G\	12ddd\L 12gg\ 12dd\	.
12b-\ 12d\ 12G\	12ddd\ 12gg\ 12dd\	.
12b-\J 12d\ 12G\	12bbb-\J 12ddd\ 12bb-\	.
12cc\L 12e-\ 12G\	12fff#X\L 12eee-\ 12ff#X\	.
12cc\ 12e-\ 12G\	12fff#\ 12eee-\ 12ff#\	.
12b-\J 12e-\ 12G\	12fff#\J 12eee-\ 12gg\	.
=43	=43	=43
!LO:TX:t=P:problem=mixed beam	!LO:TX:b:i:t=con passione	!
12EEn/L	12ggg\L 12bb-\ 12gg\	.
12b-\ 12d\ 12B-\ 12G\	12ggg\ 12bb-\ 12gg\	.
12b-\J 12d\ 12B-\ 12G\	12ggg\J 12bb-\ 12gg\	.
12b-\L 12d\ 12B-\ 12G\	12ggg\L 12bb-\ 12gg\	.
12b-\ 12d\ 12B-\ 12G\	12ggg\ 12bb-\ 12gg\	.
12b-\J 12d\ 12B-\ 12G\	12fff\J 12bb-\ 12gg\	.
12b-\L 12d\ 12B-\ 12G\	12eeen\L 12bb-\ 12een\	.
12b-\ 12d\ 12B-\ 12G\	12eee\ 12bb-\ 12ee\	.
12b-\J 12d\ 12B-\ 12G\	12eee\J 12bb-\ 12ee\	.
12b-\L 12d\ 12B-\ 12G\	12ddd\L 12bb-\ 12dd\	.
12b-\ 12d\ 12B-\ 12G\	12ddd\ 12bb-\ 12dd\	.
12b-\J 12d\ 12B-\ 12G\	12ddd\J 12bb-\ 12dd\	.
=44	=44	=44
!LO:TX:t=P:problem=mixed beam	!	!
12AAAn/L	12ddd\L 12bb-\ 12dd\	.
12b-\ 12d\ 12B-\ 12G\	12ddd\ 12bb-\ 12dd\	.
12b-\J 12d\ 12B-\ 12G\	12ddd\J 12bb-\ 12dd\	.
12an\L 12c#X\ 12An\ 12G\	12ccc#X\L 12aan\ 12cc#X\	.
12a\ 12c#\ 12A\ 12G\	12ccc#\ 12aa\ 12cc#\	.
12a\J 12c#\ 12A\ 12G\	12ccc#\J 12aa\ 12cc#\	.
12a\L 12c#\ 12A\ 12G\	12ccc#\L 12aa\ 12cc#\	.
12a\ 12c#\ 12A\ 12G\	12ccc#\ 12aa\ 12cc#\	.
12a\J 12c#\ 12A\ 12G\	12ccc#\J 12aa\ 12cc#\	.
12a\L 12c#\ 12A\ 12G\	12ccc#\L 12aa\ 12cc#\	.
12a\ 12c#\ 12A\ 12G\	12ccc#\ 12aa\ 12cc#\	.
12a\J 12c#\ 12A\ 12G\	12ccc#\J 12aa\ 12cc#\	.
=45	=45	=45
!LO:TX:t=P:problem=mixed beam	!	!
12DD/L	12fff\L 12aa-X\ 12ff\	.
12a-X\ 12c\ 12A-X\ 12F\	12fff\ 12aa-\ 12ff\	.
12a-\J 12c\ 12A-\ 12F\	12fff\J 12aa-\ 12ff\	.
12a-\L 12c\ 12A-\ 12F\	12fff\L 12aa-\ 12ff\	.
12a-\ 12c\ 12A-\ 12F\	12fff\ 12aa-\ 12ff\	.
12a-\J 12c\ 12A-\ 12F\	12eee-\J 12aa-\ 12ee-\	.
12a-\L 12c\ 12A-\ 12F\	12ddd\L 12aa-\ 12dd\	.
12a-\ 12c\ 12A-\ 12F\	12ddd\ 12aa-\ 12dd\	.
12a-\J 12c\ 12A-\ 12F\	12ddd\J 12aa-\ 12dd\	.
12a-\L 12c\ 12A-\ 12F\	12ccc\L 12aa-\ 12cc\	.
12a-\ 12c\ 12A-\ 12F\	12ccc\ 12aa-\ 12cc\	.
12a-\J 12c\ 12A-\ 12F\	12ccc\J 12aa-\ 12cc\	.
!!LO:PB:g=original
=46	=46	=46
!LO:TX:t=P:problem=mixed beam	!	!
12GGG/L	12ccc\L 12aa-\ 12cc\	.
12a-\ 12c\ 12A-\ 12F\	12ccc\ 12aa-\ 12cc\	.
12a-\J 12c\ 12A-\ 12F\	12ccc\J 12aa-\ 12cc\	.
12g\L 12Bn\ 12G\ 12F\	12bbn\L 12gg\ 12bn\	.
12g\ 12B\ 12G\ 12F\	12bb\ 12gg\ 12b\	.
12g\J 12B\ 12G\ 12F\	12bb\J 12gg\ 12b\	.
12g\L 12B\ 12G\ 12F\	12bb\L 12gg\ 12b\	.
12g\ 12B\ 12G\ 12F\	12bb\ 12gg\ 12b\	.
12g\J 12B\ 12G\ 12F\	12bb\J 12gg\ 12b\	.
12g\L 12B\ 12G\ 12F\	12bb\L 12gg\ 12b\	.
12g\ 12B\ 12G\ 12F\	12bb\ 12gg\ 12b\	.
12g\J 12B\ 12G\ 12F\	12bb\J 12gg\ 12b\	.
=47	=47	=47
!LO:TX:t=P:problem=mixed beam	!	!
12EE-/L 12EEE-/	12ccc\L 12gg\ 12cc\	<
12g\ 12c\ 12G\ 12E-\	12ccc\ 12gg\ 12cc\	.
12g\J 12c\ 12G\ 12E-\	12eee-\J 12gg\ 12ee-\	.
12g\L 12c\ 12G\ 12E-\	12ddd\L 12gg\ 12dd\	.
12g\ 12c\ 12G\ 12E-\	12ddd\ 12gg\ 12dd\	.
12g\J 12c\ 12G\ 12E-\	12eee-\J 12gg\ 12ee-\	.
12g\L 12c\ 12G\ 12E-\	12fff\L 12gg\ 12ff\	.
12g\ 12c\ 12G\ 12E-\	12fff\ 12gg\ 12ff\	.
12g\J 12c\ 12G\ 12E-\	12eee-\J 12gg\ 12ee-\	.
12g\L 12c\ 12G\ 12E-\	12ddd\L 12gg\ 12dd\	.
12g\ 12c\ 12G\ 12E-\	12ddd\ 12gg\ 12dd\	.
12g\J 12c\ 12G\ 12E-\	12ccc\J 12gg\ 12cc\	[[
=48	=48	=48
!LO:TX:t=P:problem=mixed beam	!	!
12FF/L 12FFF/	12ccc\L 12aa-\ 12cc\	.
12a-\ 12d\ 12F\	12ccc\ 12aa-\ 12cc\	.
12a-\J 12d\ 12F\	12ccc\J 12aa-\ 12cc\	.
12d\L 12F\	12cc\L 12a-\ 12c\	.
12d\ 12F\	12cc\ 12a-\ 12c\	.
12d\J 12F\	12cc\J 12a-\ 12c\	.
12a-\L 12d\ 12F\	12ccc\L 12aa-\ 12cc\	.
12a-\ 12d\ 12F\	12ccc\ 12aa-\ 12cc\	.
12a-\J 12d\ 12F\	12ccc\J 12aa-\ 12cc\	.
12a-\L 12d\ 12F\	12ccc\L 12aa-\ 12cc\	.
12a-\ 12d\ 12F\	12ccc\ 12aa-\ 12cc\	.
12a-\J 12d\ 12F\	12ccc\J 12aa-\ 12cc\	.
=49	=49	=49
!LO:TX:t=P:problem=mixed beam	!	!
12GG/L 12GGG/	12ccc\L 12gg\ 12cc\	<
12g\ 12e-\ 12c\ 12G\	12ccc\ 12gg\ 12cc\	.
12g\J 12e-\ 12c\ 12G\	12eee-\J 12gg\ 12ee-\	.
12g\L 12e-\ 12c\ 12G\	12ddd\L 12gg\ 12dd\	.
12g\ 12e-\ 12c\ 12G\	12ddd\ 12gg\ 12dd\	.
12g\J 12e-\ 12c\ 12G\	12eee-\J 12gg\ 12ee-\	.
12g\L 12e-\ 12c\ 12G\	12fff\L 12gg\ 12ff\	.
12g\ 12e-\ 12c\ 12G\	12fff\ 12gg\ 12ff\	.
12g\J 12e-\ 12c\ 12G\	12eee-\J 12gg\ 12ee-\	.
12g\L 12e-\ 12c\ 12G\	12ddd\L 12gg\ 12dd\	.
12g\ 12e-\ 12c\ 12G\	12ddd\ 12gg\ 12dd\	.
12g\J 12e-\ 12c\ 12G\	12ccc\J 12gg\ 12cc\	.
!!LO:PB:g=original
=50	=50	=50
!LO:TX:t=P:problem=mixed beam	!	!
12AA-/L 12AAA-/	12ccc\L 12aa-\ 12cc\	.
12a-\ 12e-\ 12A-\	12ccc\ 12aa-\ 12cc\	.
12a-\J 12e-\ 12A-\	12ccc\J 12aa-\ 12cc\	.
12e-\L 12A-\	12cc\L 12a-\ 12c\	.
12e-\ 12A-\	12cc\ 12a-\ 12c\	.
12e-\J 12A-\	12cc\J 12a-\ 12c\	.
12a-\L 12e-\ 12A-\	12ccc\L 12aa-\ 12cc\	.
12a-\ 12e-\ 12A-\	12ccc\ 12aa-\ 12cc\	.
12a-\J 12e-\ 12A-\	12ccc\J 12aa-\ 12cc\	.
12a-\L 12e-\ 12A-\	12ccc\L 12aa-\ 12cc\	.
12a-\ 12e-\ 12A-\	12ccc\ 12aa-\ 12cc\	.
12a-\J 12e-\ 12A-\	12ccc\J 12aa-\ 12cc\	.
=51	=51	=51
!LO:TX:t=P:problem=mixed beam	!LO:TX:b:t=molto	!LO:TX:b:t=creſcendo:dur=6q:problem=text with extention line
12AAn/L 12AAAn/	12ccc\L 12ff#X\ 12cc\	<
12f#X\ 12c\ 12An\	12ccc\ 12ff#\ 12cc\	.
12f#\J 12c\ 12A\	12eee-\J 12ff#\ 12ee-\	.
12f#\L 12c\ 12A\	12ddd\L 12ff#\ 12dd\	.
12f#\ 12c\ 12A\	12ddd\ 12ff#\ 12dd\	.
12f#\J 12c\ 12A\	12eee-\J 12ff#\ 12ee-\	.
12f#\L 12c\ 12A\	12fff#X\L 12ff#\	.
12f#\ 12c\ 12A\	12fff#\ 12ff#\	.
12f#\J 12c\ 12A\	12eee-\J 12ff#\ 12ee-\	.
12f#\L 12d\ 12A\	12ddd\L 12ff#\ 12dd\	.
12f#\ 12d\ 12A\	12ddd\ 12ff#\ 12dd\	.
12f#\J 12e-\ 12A\	12ccc\J 12ff#\ 12cc\	.
=52	=52	=52
!LO:TX:t=P:problem=mixed beam	!	!
12C/L 12CC/	12eee-\L 12ff#X\ 12ee-\	.
12an\ 12e-\ 12c\	12eee-\ 12ff#\ 12ee-\	.
12a\J 12e-\ 12c\	12fff#X\J 12aan\ 12ee-\	.
12a\L 12e-\ 12c\	12fffn\L 12aa\ 12ffn\	.
12a\ 12e-\ 12c\	12fff\ 12aa\ 12ff\	.
12a\J 12e-\ 12c\	12fff#X\J 12aa\ 12ff#X\	.
12a\L 12e-\ 12c\	12aaan\L 12aan\	.
12a\ 12e-\ 12c\	12aaa\ 12aa\	.
12a\J 12e-\ 12c\	12fff#\J 12aa\ 12ff#\	.
12a\L 12fn\ 12c\	12fffn\L 12aa\ 12ffn\	.
12a\ 12f\ 12c\	12fff\ 12aa\ 12ff\	.
12a\J 12f#X\ 12c\	12eee-\J 12aa\ 12ee-\	.
=53	=53	=53
12E-/L 12EE-/	12cccc\L 12eee-\ 12ccc\	ff
*clefG2	*	*
12cc/ 12f#X/ 12e-/	12cccc\ 12eee-\ 12ccc\	.
12cc/J 12f#/ 12e-/	12aaan\J 12eee-\ 12aan\	.
12cc/L 12g/ 12e-/	12ggg\L 12eee-\ 12gg\	.
12cc/ 12g/ 12e-/	12ggg\ 12eee-\ 12gg\	.
12cc/J 12an/ 12e-/	12fff\J 12eee#X\ 12ff#X\	.
*clefF4	*	*
*	*8va	*
12F/L 12FF#X/	12eeee#X\L 12fff#X\ 12eee-X\	.
*clefG2	*	*
12ee-/ 12a/ 12f#/	12eeee#\ 12fff#\ 12eee-\	.
12ee-/J 12a/ 12f#/	12cccc\J 12eee-\ 12ccc\	.
12ee-/L 12b-/ 12f#/	12bbb-\L 12eeen\ 12bb-\	.
12ee-/ 12b-/ 12f#/	12bbb-\ 12eee\ 12bb-\	.
12ee-/J 12cc/ 12f#/	12aaa\J 12eee\ 12aan\	.
*	*X8va	*
!!LO:PB:g=original
*clefF4	*	*
=54	=54	=54
*	*8va	*
12An\L 12AAn\	12ffff#X\L 12aaan\ 12fff#X\	fff
*clefG2	*	*
12ff#X\ 12cc\ 12an\	12ffff#\ 12aaa\ 12fff#\	.
12ff#\J 12cc\ 12a\	12eeee-\J 12fff#\ 12eee-\	.
12ff#\L 12cc\ 12a\	12dddd\L 12fff#\ 12ddd\	.
12ff#\ 12cc\ 12a\	12dddd\ 12fff#\ 12ddd\	.
12ff#\J 12cc\ 12a\	12cccc\J 12fff#\ 12ccc\	.
8aa-\	8aaaan\ 8aaa\	.
!	!LO:TX:b:t=lunga	!
8r	8r	.
8r;	8r;	.
8r	8r	pp
=55||	=55||	=55||
!	!LO:TX:b:t=Cadenza.	!
32fff#X\LLL	32aaaan\LLL 32cccc\	.
32eee-X\	32ffff#X\ 32aaan\	.
32ddd\	32ffffn\ 32aaa-X\	.
32fffn\	32aaaa-X\ 32bbbn\	.
32eeen\	32gggg\ 32bbb-X\	.
32ccc#X\	32eeeen\ 32ggg\	.
32cccn\	32eeee-X\ 32fff#X\	.
32eee-X\	32ffff#X\ 32aaan\	.
32ddd\	32ffffn\ 32aaa-X\	.
32bbn\	32dddd\ 32fffn\	.
32bb-X\	32cccc#X\ 32eeen\	.
32ccc#X\	32eeeen\ 32ggg\	pp
32cccn\	32eeee-X\ 32fff#X\	.
32aan\	32ccccn\ 32eee-X\	.
32aa-X\	32bbbn\ 32ddd\	.
32bbn\	32dddd\ 32fffn\	.
32bb-X\	32cccc#X\ 32eeen\	.
32gg\	32bbb-X\ 32ccc#X\	.
32ff#X\	32aaan\ 32cccn\	.
32aan\	32ccccn\ 32eee-X\	.
32aa-X\	32bbbn\ 32ddd\	.
32ffn\	32aaa-X\ 32bbn\	.
32een\	32ggg\ 32bb-X\	.
32gg\	32bbb-X\ 32ccc#X\	.
32ff#X\	32aaan\ 32cccn\	.
32ee-X\	32fff#X\ 32aan\	.
32dd\	32fffn\ 32aa-X\	.
32ffn\	32aaa-X\ 32bbn\	.
32een\	32ggg\ 32bb-X\	.
32cc#X\	32eeen\ 32gg\	.
32ccn\	32eee-X\ 32ff#X\	.
!	!LO:TX:a:t=loco	!
32ee-X\JJJ	32fff#X\JJJ 32aan\	.
*	*X8va	*
!!LO:PB:g=original
=56	=56	=56
!	!LO:TX:b:t=Cadenza.	!
32dd\LLL	32fffn\LLL 32aa-\	.
32bn\	32ddd\ 32ffn\	.
32b-X\	32ccc#X\ 32een\	.
32cc#X\	32eeen\ 32gg\	.
32ccn\	32eee-X\ 32ff#X\	.
!LO:SIC:v:s==32an	!	!
32a-\	32cccn\ 32ee-X\	.
32a-X\	32bbn\ 32dd\	.
32bn\	32ddd\ 32ffn\	.
32b-X\	32ccc#X\ 32een\	.
32g\	32bb-X\ 32cc#X\	.
32f#X\	32aan\ 32ccn\	.
32an\	32cccn\ 32ee-X\	.
32a-X\	32bbn\ 32dd\	.
32fn\	32aa-X\ 32bn\	.
32en\	32gg\ 32b-X\	.
32g\	32bb-X\ 32cc#X\	.
32f#X\	32aan\ 32ccn\	.
32e-X\	32ff#X\ 32an\	.
32d\	32ffn\ 32a-X\	.
32fn\	32aa-X\ 32bn\	.
32en\	32gg\ 32b-X\	.
32c#X\	32een\ 32g\	.
32cn\	32ee-X\ 32f#X\	.
32e-X\JJJ	32ff#X\ 32an\	.
32d/LLL	32ffn\ 32a-X\	.
32Bn/	32dd\ 32fn\	.
32B-X/	32cc#X\ 32en\	.
32c#X/	32een\ 32g\	.
32cn/	32ee-X\ 32f#X\	.
32An/	32ccn\ 32e-X\	.
32A-X/	32bn\ 32e-\	.
32Bn/	32dd\ 32fn\	.
32c/	32ee-\ 32f#X\	.
32An/	32cc\ 32e-X\	.
32A-X/	32bn\ 32d\	.
32B/	32dd\ 32fn\	.
32c/	32ee-\ 32f#X\	<
32An/	32cc\ 32e-\	.
32A-X/	32bn\ 32d\	.
32B/	32dd\ 32fn\	.
32A-/	32bn\ 32d\	.
32B/	32dd\ 32fn\	.
32A-/	32b-X\ 32d\	[ >
32B-X/	32dd\ 32f\	.
32A-/	32b-\ 32d\	.
32B-/	32dd\ 32f\	.
32A-/	32b-\ 32d\	.
32B-/JJJ	32dd\JJJ 32f\	]]
=57	=57	=57
!	!LO:TX:b:t=riten.	!
2A-TT</	8b-\L 8d'\	.
.	8b-\J 8d'\	.
.	8d\L 8F'\	.
.	8b-\J 8d'\	.
2A-TT</	8d\L 8F'\	.
.	8b-\J 8d'\	.
.	8d\L 8F#X'\	.
!	!LO:TX:t=P:problem=klucz basowy na końcu linijki	!
.	8b-\J 8d'\	.
!!LO:PB:g=original
=58	=58	=58
*M2/4	*M2/4	*
*	*clefF4	*
!	!LO:TX:a:t=il tema.	!
8E-\L	8.G\L	p
*clefG2	*	*
8b-\J 8e-\	.	.
.	16A-\Jk	.
8e-/L 8G/	16B-\LL	.
.	16c\	.
8b-/J 8e-/	16B-\	.
.	16An\JJ	.
=59	=59	=59
!	!LO:TX:b:t=espreso	!
8E-/L	16B-\LL	.
.	16c\	.
8b-/J 8e-/	16B-\	.
.	16An\JJ	.
8e-/L 8G/	8B-\L	.
8b-/J 8e-/	8B-\J	.
=60	=60	=60
8E-/L	8e-\L	.
8b-/J 8e-/	8dW\J	.
8e-/L 8G/	8.c^<\L	.
8b-/J 8e-/	.	.
.	16B-\Jk	.
*clefF4	*	*
=61	=61	=61
8BB-\L	8B-W\	.
*clefG2	*	*
8b-\J 8d\	4A-\	.
8d/L 8F/	.	.
8b-/J 8d/	8G\	.
*clefF4	*	*
=62	=62	=62
8BB-\L	8.F\L	.
*clefG2	*	*
8b-\J 8d\	.	.
.	16G\Jk	.
8d/L 8F/	16A-\LL	.
.	16B-\	.
8b-/J 8d/	16A-\	.
.	16G\JJ	.
*clefF4	*	*
=63	=63	=63
8BB-\L	16A-\LL	.
*clefG2	*	*
.	16B-\	.
8b-\J 8d\	16A-\	.
.	16G\JJ	.
8d/L 8F/	8A-\L	.
8b-/J 8d/	8A-\J	.
*clefF4	*	*
=64	=64	=64
8BB-\L	8c\L	.
*clefG2	*	*
8b-\J 8d\	8cW\J	.
8d/L 8F/	8.B-^<\L	.
8b-/J 8d/	.	.
.	16A-\Jk	.
*clefF4	*clefG2	*
!!LO:PB:g=original
=65	=65	=65
*clefG2	*clefF4	*
8E-/L	8A-\	.
8b-/J 8e-/	4G\	.
4b-/ 4e-/	.	.
.	8G\	.
=66	=66	=66
8E-/L	8.G\L	.
8b-/J 8e-/	.	.
.	16A-\Jk	.
8e-/L 8G/	16B-\LL	.
.	16c\	.
8b-/J 8e-/	16B-\	.
.	16An\JJ	.
=67	=67	=67
8E-/L	16B-\LL	.
.	16c\	.
8b-/J 8e-/	16B-\	.
.	16An\JJ	.
8e-/L 8G/	8B-\L	.
8b-/J 8e-/	8B-\J	.
=68	=68	=68
8E-/L	8.g\L	.
8b-/J 8e-/	.	.
.	16f\Jk	.
8e-/L 8G/	16e-\LL	.
.	16d\	.
8b-/J 8e-/	16c\	.
.	16B-\JJ	.
*clefF4	*	*
=69	=69	=69
8BB-\L	8B-W\	.
*clefG2	*	*
8b-\J 8e-\	4A-\	.
8d/L 8F/	.	.
8b-/J 8d/	8G\	.
*clefF4	*	*
=70	=70	=70
8BB-\L	8.F\L	.
*clefG2	*	*
8b-\J 8d\	.	.
.	16G\Jk	.
8d/L 8F/	16A-\LL	.
.	16B-\	.
8b-/J 8d/	16A-\	.
.	16G\JJ	.
*clefF4	*	*
=71	=71	=71
8BB-\L	16A-\LL	.
*clefG2	*	*
.	16B-\	.
8b-\J 8d\	16A-\	.
.	16G\JJ	.
8d/L 8F/	8A-\L	.
8b-/J 8d/	8A-\J	.
*clefF4	*	*
=72	=72	=72
8BB-\L	8.f\L	.
*clefG2	*	*
8b-\J 8d\	.	.
.	16e-\Jk	.
8d/L 8F/	16d\LL	.
.	16c\	.
8b-/J 8d/	16B-\	.
.	16A-\JJ	.
*clefF4	*	*
!!LO:PB:g=original
=73	=73	=73
8E-\L	8A-w\	.
*clefG2	*	*
8b-\J 8e-\	4G\	.
4b-/ 4e-/	.	.
.	8G\	.
=74||	=74||	=74||
8A-/L	8e-\L	.
8ee-/J 8a-/	16d\L	.
.	16e-\JJ	.
!	!LO:TX:b:t=rit	!
8a-/L 8A-/	(16f'\LL	.
.	16e-'\	.
8ee-/J 8a-/	16d'\	.
.	16c'\JJ)	.
=75	=75	=75
!	!LO:TX:b:t=à tempo	!
8E-/L	8B-W\	.
8ee-\J 8g\	4G\	.
4ee-\ 4g\ 4B-\	.	.
.	8B-\	.
=76	=76	=76
!LO:TX:t=P:problem=mixed beam	!	!
8A-/L	8e-\L	.
8ee-\J 8a-\	16d\L	.
.	16e-\JJ	.
!	!LO:TX:b:t=rit	!
8a-/L 8c/	(16f'\LL	.
.	16e-'\	.
8ee-/J 8a-/	16d'\	.
.	16c'\JJ)	.
=77	=77	=77
!LO:TX:t=P:problem=mixed beam	!LO:TX:b:t=à tempo	!
8E-/L	8B-W\	.
8ee-\J 8g\	4G\	.
4ee-\ 4g\ 4B-\	.	.
.	8B-\	.
=78	=78	=78
!LO:TX:t=P:problem=mixed beam	!	!
8G/L	8e-'\L	.
8gg\J 8b-\	16g'\L	.
.	16f'\JJ	.
8b-\L 8e-\	16e-'\LL	.
.	16d'\	.
8ee-\J 8b-\	16c'\	.
.	16B-'\JJ	.
=79	=79	=79
!LO:TX:t=P:problem=mixed beam	!	!
8A-/L	8B-W\	.
8ff\J 8cc\ 8f\	4A-\	.
4ff\ 4cc\ 4f\	.	.
.	8G\	.
*clefF4	*	*
=80	=80	=80
8BB-\L	8F\L	.
*clefG2	*	*
8dd\J 8a-\	8cW\J	.
8a-/L 8d/	8B-\L	.
8dd/J 8a-/	8D\J	.
*clefF4	*	*
!!LO:PB:g=original
=81	=81	=81
4EE-/	4E-\	.
*clefG2	*	*
8ee-\ 8g\ 8e-\	4r	.
8r	.	.
*clefF4	*	*
=82	=82	=82
!	!LO:TX:b:t=con forza.	!
8c\ 8E-\ 8AA-\	8eee-\L 8ee-\	.
*clefG2	*	*
8cc/ 8a-/ 8e-/ 8c/	16ddd\L 16dd\	.
.	16eee-\JJ 16ee-\	.
4cc/ 4a-/ 4e-/ 4c/	16fff\LL 16ff\	.
.	16eee-\ 16ee-\	.
.	16ddd\ 16dd\	.
.	16ccc\JJ 16cc\	.
*clefF4	*	*
=83	=83	=83
8G\L 8BB-\ 8EE-\	8bb-\ 8b-\	.
16e-\L 16B-\	4gg\ 4g\	.
16e-\JJ 16B-\	.	.
8g\L 8e-\ 8G^^\	.	.
8e-\J 8B-\	8bb-\ 8b-\	.
=84	=84	=84
8c\L 8E-\ 8AA-\	8eee-\L 8ee-\	.
*clefG2	*	*
8cc\J 8a-\ 8e-\ 8c\	16ddd\L 16dd\	.
.	16eee-\JJ 16ee-\	.
4cc\ 4a-\ 4e-\ 4c\	16fff\LL 16ff\	.
.	16eee-\ 16ee-\	.
.	16ddd\ 16dd\	.
.	16ccc\JJ 16cc\	.
*clefF4	*	*
=85	=85	=85
8G\L 8BB-\ 8EE-\	8bb-\ 8b-\	.
16e-\L 16B-\	4gg\ 4g\	.
16e-\JJ 16B-\	.	.
8g\L 8e-\ 8G^^\	.	.
8e-\J 8B-\	8bb-\ 8b-\	.
=86	=86	=86
8B-\ 8E-\ 8GG\	8eee-\L 8ee-\	.
*clefG2	*	*
8b-/ 8e-/ 8B-/	16ggg\L 16gg\	.
.	16fff\JJ 16ff\	.
4b-/ 4e-/ 4B-/ 4G/	16eee-\LL 16ee-\	.
.	16ddd\ 16dd\	.
.	16ccc\ 16cc\	.
.	16bb-\JJ 16b-\	.
*clefF4	*	*
=87	=87	=87
8c\L 8F\ 8AA-\	8bb-\ 8b-\	.
16f\L 16c\	4aa-\ 4a-\	.
16f\JJ 16c\	.	.
8a-\L 8A-^^\	.	.
8f\J 8c\	8gg\ 8g\	.
=88	=88	=88
*	*clefG2	*
!LO:TX:t=P:problem=mixed beam	!	!
8D/L 8BB-/ 8BBB-/	8ff\L 8f\	.
8a-\J 8B-\	8ccc\J 8ccW\	.
8d\L 8A-\	8bb-\L 8b-\	.
8a-\J 8B-\	8dd\J 8d\	.
!!LO:PB:g=original
=89	=89	=89
(4G\ 4BB-\ 4EE-\	(4ee-\ 4e-\	.
8g\ 8e-\ 8B-\ 8G\)	8eee-\ 8bb-\ 8ee-\)	.
!	!LO:TX:t=P:problem=kreska taktowa zaznaczona wężykiem segno	!
8r	8r	.
*clefG2	*	*
=90!|:	=90!|:	=90!|:
*>B	*	*
*^	*	*
!	!	!LO:TX:b:t=quasi arpa.	!
8.g/L	4e-\ 4B-\ 4E-\	32ee-\LLL	pp
.	.	32gg\	.
.	.	32bb-\	.
.	.	32eee-\	.
.	.	32ggg\	.
.	.	32eee-\	.
16a-/Jk	.	32bb-\	.
.	.	32gg\JJJ	.
16b-/LL	4ryy	32ee-\LLL	.
.	.	32gg\	.
16cc/	.	32bb-\	.
.	.	32eee-\	.
16b-/	.	32ggg\	.
.	.	32eee-\	.
16an/JJ	.	32bb-\	.
.	.	32gg\JJJ	.
*v	*v	*	*
=91	=91	=91
16b-/LL 16g/ 16e-/	32ee-\LLL	.
.	32gg\	.
16cc/	32bb-\	.
.	32eee-\	.
16b-/	32ggg\	.
.	32eee-\	.
16an/JJ	32bb-\	.
.	32gg\JJJ	.
8b-/L	32ee-\LLL	.
.	32gg\	.
.	32bb-\	.
.	32eee-\	.
8b-/J 8g/ 8e-/	32ggg\	.
.	32eee-\	.
.	32bb-\	.
.	32gg\JJJ	.
=92	=92	=92
*	*^	*
8g\L 8B-\ 8E-\	32ee-\LLL	8ee-\	.
.	32gg\	.	.
.	32bb-\	.	.
.	32eee-\	.	.
8dd^^\J	32ggg\	8ryy	.
.	32eee-\	.	.
.	32bb-\	.	.
.	32gg\JJJ	.	.
8g\L 8B-\ 8E-\	32cc\LLL	8cc\	.
.	32gg\	.	.
.	32bb-\	.	.
.	32eee-\	.	.
8dd^^\J	32ggg\	8ryy	.
.	32eee-\	.	.
.	32bb-\	.	.
.	32gg\JJJ	.	.
*clefF4	*	*	*
=93	=93	=93	=93
*^	*	*	*
8d\L 8A-\ 8BB-\	4ryy	32b-\LLL	8b-\	.
.	.	32ff\	.	.
.	.	32bb-\	.	.
.	.	32ddd\	.	.
*clefG2	*	*	*	*
8a-\J	.	32fff\	8ryy	.
.	.	32ddd\	.	.
.	.	32bb-\	.	.
.	.	32ff\JJJ	.	.
!LO:TX:a:t=8va	!	!	!	!
*	*8va	*	*	*
8ra	8bbb-/	32dd\LLL	8ryy	.
.	.	32ff\	.	.
.	.	32bb-\	.	.
.	.	32ddd\	.	.
*	*X8va	*	*	*
8g\	8ryy	32fff\	8ryy	.
.	.	32ddd\	.	.
.	.	32bb-\	.	.
.	.	32ff\JJJ	.	.
*v	*v	*	*	*
*	*v	*v	*
*clefF4	*	*
!!LO:PB:g=original
=94	=94	=94
*^	*	*
8.f/L	4d\ 4F\ 4BB-\	32dd\LLL	.
.	.	32ff\	.
.	.	32bb-\	.
.	.	32ddd\	.
.	.	32fff\	.
.	.	32ddd\	.
16g/Jk	.	32bb-\	.
.	.	32ff\JJJ	.
*clefG2	*	*	*
16a-/LL	4ryy	32dd\LLL	.
.	.	32ff\	.
16b-/	.	32bb-\	.
.	.	32ddd\	.
16a-/	.	32fff\	.
.	.	32ddd\	.
16g/JJ	.	32bb-\	.
.	.	32ff\JJJ	.
*v	*v	*	*
=95	=95	=95
16a-/LL 16d/ 16B-/	32dd\LLL	.
.	32ff\	.
16b-/	32bb-\	.
.	32ddd\	.
16a-/	32fff\	.
.	32ddd\	.
16g/JJ	32bb-\	.
.	32ff\JJJ	.
8a-/L	32dd\LLL	.
.	32ff\	.
.	32bb-\	.
.	32ddd\	.
8a-/J 8d/ 8B-/	32fff\	.
.	32ddd\	.
.	32bb-\	.
.	32ff\JJJ	.
*clefF4	*	*
=96	=96	=96
*	*^	*
8d\L 8A-\ 8BB-\	32cc\LLL	8cc\	.
.	32ff\	.	.
.	32bb-\	.	.
.	32ddd\	.	.
*clefG2	*	*	*
8cc\J	32fff\	8ryy	.
.	32ddd\	.	.
.	32bb-\	.	.
.	32ff\JJJ	.	.
*clefF4	*	*	*
8d\L 8A-\ 8BB-\	32b-\LLL	8b-\	.
.	32ff\	.	.
.	32bb-\	.	.
.	32ddd\	.	.
*clefG2	*	*	*
8cc\J	32fff\	8ryy	.
.	32ddd\	.	.
.	32bb-\	.	.
.	32ff\JJJ	.	.
*clefF4	*	*	*
=97	=97	=97	=97
8E-\L	32a-\LLL	8a-\	.
.	32ff\	.	.
.	32bb-\	.	.
.	32ddd\	.	.
*clefG2	*	*	*
8g\J	32fff\	4.ryy	.
.	32ddd\	.	.
.	32bb-\	.	.
!	!LO:TX:a:t=1	!	!
.	32ff\JJJ	.	.
*8va	*	*	*
8bbb-\L	32ee-\LLL	.	.
.	32gg\	.	.
.	32bb-\	.	.
.	32eee-\	.	.
*X8va	*	*	*
8g\J	32ggg\	.	.
.	32eee-\	.	.
.	32bb-\	.	.
.	32gg\JJJ	.	.
*clefF4	*	*	*
=98:|!|:	=98:|!|:	=98:|!|:	=98:|!|:
*>C	*	*	*
8E-\L	32a-\LLL	8a-/	.
.	32ff\	.	.
.	32bb-\	.	.
.	32ddd\	.	.
8g\J	32fff\	4.ryy	.
.	32eee-\	.	.
.	32bb-\	.	.
!	!LO:TX:a:t=2.	!	!
.	32ee-\JJJ	.	.
8r	32ff\LLL	.	.
.	32ee-\	.	.
.	32b-\	.	.
.	32e-\JJJ	.	.
!LO:TX:a:t=ms.	!	!	!
32f\LLL	8r	.	.
32e-\	.	.	.
32B-\	.	.	.
32E-\JJJ	.	.	.
*	*v	*v	*
!!LO:LB:g=original
=99	=99	=99
8c\L 8A-\ 8E-\ 8AA-\	32ee-\LLL 32cc\	<
.	32e-\	.
.	32a-\	.
.	32ee-\	.
*clefG2	*	*
16dd\L 16bn\	32aa-\	.
.	32ee-\	.
16ee-\JJ 16cc\	32aa-\	.
.	32eee-\JJJ	.
16ff\LL 16dd\	32aaa-\LLL	.
.	32eee-\	.
16ee-\ 16cc\	32aaa-\	.
*	*8va	*
.	32eeee-\JJJ	.
16dd\ 16b-X\	16aaaa-\	.
*	*X8va	*
!	!LO:TX:a:t=loco	!
16cc\JJ 16a-\	16r	[[
*clefF4	*	*
=100	=100	=100
8BB-/ 8EE-/	16b-\LL 16g`\	.
*	*8va	*
.	16eeee-`\	.
*clefG2	*	*
4g/ 4e-/	16eeee-`\	.
.	16bbb-`\JJ	.
*	*X8va	*
!	!LO:TX:a:t=loco	!
.	16eee-`\LL	.
.	16bb-`\	.
8g/ 8e-/	16ee-`\	.
.	16b-`\JJ	.
*clefF4	*	*
=101	=101	=101
8c\L 8A-\ 8E-\ 8AA-\	32ee-\LLL 32cc\	<
.	32e-\	.
.	32a-\	.
.	32ee-\	.
*clefG2	*	*
16dd\L 16bn\	32aa-\	.
.	32ee-\	.
16ee-\JJ 16cc\	32aa-\	.
.	32eee-\JJJ	.
16ff\LL 16dd\	32aaa-\LLL	.
.	32eee-\	.
16ee-\ 16cc\	32aaa-\	.
*	*8va	*
.	32eeee-\JJJ	.
16dd\ 16b-X\	16aaaa-\	.
*	*X8va	*
!	!LO:TX:a:t=loco	!
16cc\JJ 16a-\	16r	[[
*clefF4	*	*
=102	=102	=102
8BB-/ 8EE-/	16b-\LL 16g\	.
*	*8va	*
.	16eeee-\	.
*clefG2	*	*
4g/ 4e-/	16eeee-\	.
.	16bbb-\JJ	.
*	*X8va	*
!	!LO:TX:a:t=loco	!
.	16eee-\LL	.
.	16bb-\	.
8g/ 8e-/	16ee-\	.
.	16b-\JJ	.
*clefF4	*	*
=103	=103	=103
!	!LO:TUP:a:problem=klamra łukowa	!
8e-\ 8G\ 8BB-\	24ee-\ 24g\	.
.	24r	.
.	24eee-\ 24gg\	<
!	!LO:TUP:a:problem=klamra łukowa	!
*clefG2	*	*
16gg\LL 16ee-\	24fff\LL 24aa-\	.
.	24ggg\ 24bb-\	.
16ff\JJ 16dd\	.	.
.	24aaa-\JJ 24ccc\	.
*	*Xtuplet	*
*	*8va	*
16ee-\LL 16cc\	24bbb-\LL 24bb-\	.
.	24cccc\ 24eee-\	.
16dd\ 16b-\	.	.
.	24dddd\ 24fff\	.
16cc\ 16a-\	24eeee-\ 24ggg\	.
.	24ffff\ 24aaa-\	.
16b-\JJ 16g\	.	.
.	24gggg\JJ 24bbb-\	[[
*clefF4	*	*
!!LO:PB:g=original
=104	=104	=104
*clefG2	*	*
8b-/ 8g/ 8d/ 8B-/	24gggg\LL 24bbb-\	.
.	24ffff#X\ 24aaan\	.
.	24ffffn\ 24aaa-X\	.
4a-/ 4f/	24dddd\ 24fff\	.
.	24cccc#X\ 24eeen\	.
.	24ccccn\JJ 24eee-X\	.
.	24bbbn\LL 24ddd\	.
.	24bbb-X\ 24ddd-X\	.
.	24aaan\ 24ccc\	.
*	*X8va	*
!	!LO:TX:a:t=loco	!
8g/ 8e-/	24aaa-X\ 24ccc-X\	.
.	24ggg\ 24bb-\	.
.	24fff#X\JJ 24aan\	.
=105	=105	=105
!	!LO:TX:a:t=2	!
8f/ 8d/	(16fffn\LL 16aa-X'\	.
.	16aa-'\JJ)	.
*clefF4	*	*
8BB-/	16cc\LL 16a-'\	.
.	16a-\JJ 16c'\	.
8BBB-/	16b-/LL 16a-'/	.
.	16a-/JJ 16B-/|	.
16B-\LL	8d/ 8A-'/	.
16BB-\JJ	.	.
=106	=106	=106
4EE-/	16e-\LL 16G\	.
.	16g\ 16e-\	.
.	16ee-\ 16g\	.
.	16gg\JJ 16ee-\	.
*	*8va	*
4e-\ 4G\	4eeee-\ 4ggg\	.
*	*X8va	*
=107:|!|:	=107:|!|:	=107:|!|:
*>D	*	*
!	!LO:TX:b:t=pizzicato.	!
!LO:TX:t=P:problem=mixed beam	!LO:TX:t=P:problem=mixed beam	!
16EE-'/LL	16gg\LL 16ee-'\	.
16G'\	16e-'/	.
16B-`\	16f'/	.
16BB-'\JJ	16aa-\JJ 16ff'\	.
!LO:TX:t=P:problem=mixed beam	!	!
16EE-'/LL	16bb-\LL 16gg'\	.
16c'\	16ccc\ 16a-'\	.
16e-`\	16bb-\ 16g'\	.
16E-`\JJ	16aan\JJ 16ff#X'\	.
=108	=108	=108
!LO:TX:t=P:problem=mixed beam	!	!
16EE-'/LL	16bb-\LL 16gg'\	.
16c`\	16ccc\ 16a-'\	.
16e-`\	16bb-\ 16g'\	.
16E-`\JJ	16aan\JJ 16ff#X'\	.
!LO:TX:t=P:problem=mixed beam	!	!
16EE-'/LL	16bb-\LL 16gg'\	.
16G`\	16e-'\	.
16B-`\	16bb-\ 16g'\	.
16BB-`\JJ	16ee-'\JJ	.
!!LO:PB:g=original
=109	=109	=109
!LO:TX:t=P:problem=mixed beam	!	!
16CC`/LL	16eee-\LL 16gg`\	.
16E-`\	16g`\	.
16G`\	16ddd\ 16b-`\	.
16GG`\JJ	16bb-`\JJ	.
16AA-`\LL	16ccc\LL 16aa-`\	.
16c`\	16a-`\	.
16e-`\	16bb-\ 16g`\	.
16E-`\JJ	16gg`\JJ	.
=110	=110	=110
16BBB-`/LL	16bb-\LL 16dd`\	.
16BB-`/	16f`\	<
16D`/	16aa-\ 16b-`\	.
16BBB-`/JJ	16B-`\JJ	.
16F`/LL	16dd`\LL	.
16BBB-`/	16B-`\	.
16G`/	16gg\ 16ee-`\	[
16BBB-`/JJ	16B-`\JJ	.
=111	=111	=111
!LO:TX:t=P:problem=mixed beam	!	!
16BBB-`/LL	16ff\LL 16dd`\	.
16F`\	16d`\	.
16G`\	16e-`\	.
16GG`\JJ	16gg\JJ 16ee-`\	.
!LO:TX:t=P:problem=mixed beam	!	!
16BBB-`/LL	16aa-\LL 16ff`\	.
16B-`\	16bb-\ 16g`\	.
16d`\	16aa-\ 16f`\	.
16BB-`\JJ	16gg\JJ 16een`\	.
=112	=112	=112
!LO:TX:t=P:problem=mixed beam	!	!
16BBB-`/LL	16aa-\LL 16ff`\	.
16B-`\	16bb-\ 16g`\	.
16d`\	16aa-\ 16f`\	.
16BB-`\JJ	16gg\JJ 16een`\	.
!LO:TX:t=P:problem=mixed beam	!	!
16BBB-`/LL	16aa-\LL 16ff`\	.
16F`\	16d`\	.
16B-`\	16aa-\ 16f`\	.
16BB-`\JJ	16dd`\JJ	.
=113	=113	=113
!LO:TX:t=P:problem=mixed beam	!	!
16BBB-`/LL	16ccc\LL 16aa-`\	.
16D`\	16a-`\	.
16F`\	16ccc\ 16aa-`\	.
16BBB-`/JJ	16d`\JJ	.
16BB-`\LL	16bb-\LL 16gg`\	.
16B-`\	16d`\	.
16d`\	16f`\	.
16BB-`\JJ	16aa-\JJ 16ff`\	.
!!LO:PB:g=original
=114	=114	=114
!LO:TX:t=P:problem=mixed beam	!	!
16EE-'/LL	16aa-\LL 16ff'\	<
16B-'\	16e-'\	.
16e-'\	16gg\ 16ee-'\	.
16EE-'/JJ	16e-'\JJ	.
!LO:TX:t=P:problem=mixed beam	!	!
16g'\LL	16r	.
16EE-'/JJ	16e-'\LL	[
16e-'\	16gg\ 16ee-'\	.
16r	16e-'\JJ	.
=115:|!|:	=115:|!|:	=115:|!|:
*>E	*	*
16AA-'\LL	16eee-\LL 16ccc'\	.
16c'\	16a-'\	.
16e-'\	16ddd\ 16bn'\	.
16E-'\JJ	16eee-\JJ 16bbn'\	.
16AA-'\LL	16fff\LL 16ccc'\	.
16e-'\	16eee-\ 16cc'\	.
16a-'\	16ddd\ 16b-X'\	.
16A-'\JJ	16ccc\JJ 16aa-'\	.
=116	=116	=116
!LO:TX:t=P:problem=mixed beam	!	!
16EE-'\LL	16bb-\LL 16gg'\	<
16G'\	16g'\	.
16B-'\	16gg\ 16ee-'\	.
16EE-'/JJ	16e-'\JJ	.
!LO:TX:t=P:problem=mixed beam	!	!
16e-'\LL	16r	.
16EE-'/	16e-'\LL	.
16g'\	16bb-\ 16gg'\	.
16EE-'/JJ	16g'\JJ	[[
=117	=117	=117
16AA-'\LL	16eee-\LL 16ccc`\	.
16c'\	16a-`\	.
16e-'\	16ddd\ 16bn`\	.
16E-'\JJ	16eee-\JJ 16bbn`\	.
16AA-'\LL	16fff\LL 16ccc`\	.
16e-'\	16eee-\ 16cc`\	.
16a-'\	16ddd\ 16b-X`\	.
16A-'\JJ	16ccc\JJ 16aa-`\	.
=118	=118	=118
!LO:TX:t=P:problem=mixed beam	!	!
16EE-'/LL	16bb-\LL 16gg`\	<
16G'\	16g`\	.
16B-'\	16gg\ 16ee-`\	.
16EE-'/JJ	16e-`\JJ	.
!LO:TX:t=P:problem=mixed beam	!	!
16e-'\LL	16r	.
16EE-'/	16e-`\LL	.
16g'\	16bb-\ 16ee-`\	.
16EE-'/JJ	16e-`\JJ	[[
!!LO:PB:g=original
=119	=119	=119
16GG'\LL	16eee-\LL 16bb-'\	.
16B-'\	16b-'\	.
16e-'\	16ggg\ 16ee-'\	.
16E-'\JJ	16fff\JJ 16bb-'\	.
!LO:TX:t=P:problem=mixed beam	!	!
16EE-'/LL	16eee-\LL 16gg`\	.
16e-'\	16ddd\ 16b-`\	.
16g'\	16ccc\ 16ee-`\	.
16E-'/JJ	16bb-\JJ 16gg`\	.
=120	=120	=120
16AA-'\LL	16bb-\LL 16gg'\	.
16d-X'\	16en'\	.
16c'\	16aa-\ 16ff`\	.
16AA-'\JJ	16f`\JJ	.
16c'\LL	16ff`\LL	.
16AA-'\	16c`\	.
16cn'\	16gg\ 16ee-`\	.
16AAA-'\JJ	16An`\JJ	.
=121	=121	=121
16BBB-'\LL	16ff\LL 16dd`\	<
16d'\	16B-X`\	.
16F'\	16ccc\ 16aa-`\	.
16BB-'\JJ	16a-`\JJ	.
16BBB-'\LL	16bb-`\LL	.
16d'\	16a-`\	.
16A-'\	16dd`\	.
16BB-'\JJ	16B-`\JJ	.
=122	=122	=122
16EE-\LL	16ee-\LL 16g`\	.
16BB-\	16B-`\	.
16G\	16eee-\ 16gg`\	.
16B-\JJ	16b-`\JJ	.
*	*8va	*
4g\	4eeee-\	[
*	*X8va	*
!!LO:PB:g=original
=123:|!	=123:|!	=123:|!
*>F	*	*
*	*8va	*
*clefG2	*	*
*^	*	*
!	!	!LO:TX:b:t=quasi campanelle	!
8.ggg/L 8.eee-/ 8.bb-/	4gg\ 4ee-\ 4b-\ 4e-\	2eeee-TT\	pp
16aaa-/Jk 16fff/	.	.	.
16bbb-\LL 16ggg\	4ryy	.	.
16cccc\ 16aaa-\	.	.	.
16bbb-\ 16ggg\	.	.	.
16aaan\JJ 16fff#X\	.	.	.
*v	*v	*	*
=124	=124	=124
16bbb-\LL 16ggg\	2eeee-TT\	.
16cccc\ 16aaa-\	.	.
16bbb-\ 16ggg\	.	.
16aaan\JJ 16fff#X\	.	.
8bbb-\L 8ggg\	.	.
8bbb-\J 8ggg\	.	.
=125	=125	=125
8cccc\L 8ggg\ 8eee-\ 8bb-\ 8ee-\	2eeee-TT\	.
8dddd\J 8bbb-\	.	.
8cccc\L 8aaa-\	.	.
8bbb-\J 8ggg\	.	.
=126	=126	=126
8ggg\ 8ddd\ 8aa-\ 8b-\	2bbb-TT\	.
4aaa-\ 4fff\	.	.
8ggg\ 8eee-\	.	.
=127	=127	=127
8.fff\L 8.ddd\ 8.aa-\ 8.b-\	2bbb-TT\	.
16ggg\Jk 16eeen\	.	.
16aaa-\LL 16fff\	.	.
16ggg\	.	.
16aaa-\ 16fff\	.	.
16ggg\JJ 16eeen\	.	.
=128	=128	=128
16aaa-\LL 16fff\	2bbb-TT\	.
16ggg\	.	.
16aaa-\ 16fff\	.	.
16ggg\JJ 16eeen\	.	.
8aaa-\L 8fff\	.	.
8aaa-\J 8fff\	.	.
!!LO:PB:g=original
=129	=129	=129
8aaa-\L 8ddd\ 8aa-\ 8b-\	4ccccT\	.
8aaa-\J	.	.
8bbb-\L 8ggg\	4ddddt\	.
8aaa-\J 8fff\	.	.
=130	=130	=130
8aaa-\L 8fff\ 8bb-\ 8ee-\	2eeee-T\	.
16ggg\L 16eee-\	.	.
16bb-\JJ	.	.
16gg\LL 16ee-\	.	.
16b-\JJ	.	.
16g/LL 16e-/	.	.
16B-/JJ	.	.
=131||	=131||	=131||
*clefF4	*	*
*	*^	*
8g\L 8B-\ 8E-\	2eeee-T/	8.ggg\L 8.eee-\	.
*clefG2	*	*	*
8bb-\J 8gg\ 8b-\	.	.	.
.	.	16aaa-\Jk 16fff\	.
4bb-\ 4gg\ 4b-\	.	16bbb-\LL 16ggg\	.
.	.	16cccc\ 16aaa-\	.
.	.	16bbb-\ 16ggg\	.
.	.	16aaan\JJ 16fff#X\	.
*clefF4	*	*	*
=132	=132	=132	=132
8g\L 8B-\ 8E-\	2eeee-T/	16bbb-\LL 16ggg\	.
.	.	16cccc\ 16aaa-\	.
*clefG2	*	*	*
8bb-\J 8gg\ 8b-\	.	16bbb-\ 16ggg\	.
.	.	16aaan\JJ 16fff#X\	.
4bb-\ 4gg\ 4b-\	.	8bbb-\L 8ggg\	.
.	.	8bbb-\J 8ggg\	.
*clefF4	*	*	*
=133	=133	=133	=133
8g\L 8B-\ 8E-\	2eeee-T/	8eeee-\L 8cccc\	.
*clefG2	*	*	*
8bb-\J 8gg\ 8b-\	.	8dddd\J 8bbb-\	.
*clefF4	*	*	*
8g\L 8B-\ 8E-\	.	8cccc\L 8aaa-\	.
*clefG2	*	*	*
8bb-\J 8gg\ 8b-\	.	8bbb-\J 8ggg\	.
*clefF4	*	*	*
=134	=134	=134	=134
8d\L 8A-\ 8BB-\	2bbb-T/	8bbb-\ 8ggg\	.
*clefG2	*	*	*
8aa-\J 8dd\ 8a-\	.	4aaa-\ 4fff\	.
4aa-\ 4dd\ 4a-\	.	.	.
.	.	8ggg\ 8eee-\	.
*clefF4	*	*	*
!!LO:PB:g=original
=135	=135	=135	=135
8d\L 8A-\ 8BB-\	2bbb-T/	8.fff\L 8.ddd\	.
*clefG2	*	*	*
8aa-\J 8dd\ 8a-\	.	.	.
.	.	16ggg\Jk 16eee-\	.
4aa-\ 4dd\ 4a-\	.	16aaa-\LL 16fff\	.
.	.	16bbb-\ 16ggg\	.
.	.	16aaa-\ 16fff\	.
.	.	16ggg\JJ 16eeen\	.
*clefF4	*	*	*
=136	=136	=136	=136
8d\L 8A-\ 8BB-\	2bbb-T/	16aaa-\LL 16fff\	.
.	.	16bbb-\ 16ggg\	.
8aa-\J 8dd\ 8a-\	.	16aaa-\ 16fff\	.
.	.	16ggg\JJ 16eeen\	.
4aa-\ 4dd\ 4a-\	.	8aaa-\L 8fff\	.
.	.	8aaa-\J 8fff\	.
=137	=137	=137	=137
8d\L 8A-\ 8BB-\	4ccccT/	8cccc\L 8aaa-\	.
8aa-\J 8dd\ 8a-\	.	8cccc\J 8aaa-\	.
*clefF4	*	*	*
8d\L 8A-\ 8BB-\	4ddddt/	8bbb-\L 8ggg\	.
*clefG2	*	*	*
8aa-\J 8dd\ 8a-\	.	8aaa-\J 8fff\	.
*clefF4	*	*	*
=138	=138	=138	=138
8g\L 8B-\ 8E-\	2eeee-T/	8aaa-\ 8fff\	.
*clefG2	*	*	*
8gg\J 8ee-\ 8g\	.	4.ggg\ 4.eee-\	.
4gg\ 4ee-\ 4g\	.	.	.
=139!|:	=139!|:	=139!|:	=139!|:
*>G	*	*	*
8cc/ 8e-/ 8A-/	2eeee-T/	8cccc\L	.
16ddd\LL	.	16bbbn\L	.
16eee-\JJ	.	16cccc\JJ	.
16fff\LL	.	16dddd\LL	.
16eee-\	.	16cccc\	.
16ddd\	.	16bbb-X\	.
16ccc\JJ	.	16aaa-\JJ	.
=140	=140	=140	=140
!LO:TX:t=P:problem=mixed beam	!	!	!
8bb-\L	2bbb-T/	8ggg\	.
8b-/J 8e-/	.	4eee-\	.
8g/L	.	.	.
8B-/J 8E-/	.	8ggg\	.
!!LO:LB:g=original
=141	=141	=141	=141
8cc/ 8e-/ 8A-/	2eeee-T/	8cccc\L	.
16ddd\LL	.	16bbbn\L	.
16eee-\JJ	.	16cccc\JJ	.
16fff\LL	.	16dddd\LL	.
16eee-\	.	16cccc\	.
16ddd\	.	16bbb-X\	.
16ccc\JJ	.	16aaa-\JJ	.
=142	=142	=142	=142
!LO:TX:t=P:problem=mixed beam	!	!	!
8bb-\L	2bbb-T/	8ggg\	.
8b-/J 8e-/	.	4eee-\	.
8g/L	.	.	.
8B-/J 8E-/	.	8ggg\	.
=143	=143	=143	=143
8ee-/ 8g/ 8B-/	2bbb-T/	8bb-\L	.
16eee-\LL	.	16ggg\L	.
16ddd\JJ	.	16fff\JJ	.
16ccc\LL	.	16eee-\LL	.
16bb-\	.	16ddd\	.
16aa-\	.	16ccc\	.
16gg\JJ	.	16bb-\JJ	.
=144	=144	=144	=144
8gg/ 8dd/ 8a-/ 8B-/	2bbb-T/	8bb-\	.
4aa-\ 4ff\	.	4.ryy	.
8gg\ 8ee-\	.	.	.
*	*v	*v	*
=145	=145	=145
8ff/L 8dd/ 8a-/ 8B-/	2bbb-T/	.
8ccc/J 8aa-/	.	.
8bb-/L 8aa-/	.	.
8dd/J 8a-/ 8B-/	.	.
=146	=146	=146
!LO:TX:a:t=1.	!	!
*>G1	*	*
4ee-/ 4g/ 4B-/ 4E-/	2bbb-T/	.
4r	.	.
.	32qqaaan\LLL	.
.	32qqbbb-\	.
.	32qqbbbn\	.
.	32qqcccc\	.
.	32qqcccc#X\	.
.	32qqdddd\JJJ	.
=147:|!	=147:|!	=147:|!
!LO:TX:a:t=2	!	!
*>G2	*	*
*	*^	*
4ee-/ 4g/ 4B-/ 4E-;/	2bbb-T;/	32ggg\LLL	.
.	.	32aaa-\	.
.	.	32aaan\	.
.	.	32bbb-\	.
.	.	32bbbn\	.
.	.	32cccc\	.
.	.	32cccc#X\	.
.	.	32dddd\JJJ	.
!	!LO:TX:t=P:problem=ten takt zapisany w inny sposób, tak jak np poprzedni, się wykrzaczał przy próbie załadowania	!	!
!	!LO:TX:a:t=loco	!	!
.	.	32qqffff\	.
4r	.	4eeee-/	.
*	*v	*v	*
*	*X8va	*
!!LO:PB:g=original
*clefF4	*	*
=148!|:	=148!|:	=148!|:
*>H	*	*
!	!	!LO:DY:a
16E-\LL 16BB-\ 16EE-\	8g</ 8G</	fp
16f\ 16F\	.	.
*	*8va	*
16g\ 16G\	8eeee-\ 8bbb-\ 8eee-\	.
16a-\JJ 16A-\	.	.
*	*X8va	*
!	!	!LO:DY:a
16G\LL 16E-\	8b-</ 8B-</	p
16cc\ 16c\	.	.
*	*8va	*
16b-\ 16B-\	8eeee-\ 8bbb-\ 8eee-\	.
16an\JJ 16An\	.	.
*	*X8va	*
=149	=149	=149
!	!LO:TX:b:t=quasi martelli	!
16G\LL 16E-\	8b-</ 8B-</	.
16cc\ 16c\	.	.
*	*8va	*
16b-\ 16B-\	8eeee-\ 8bbb-\ 8eee-\	.
16an\JJ 16An\	.	.
*	*X8va	*
16G\LL 16E-\	8b-</ 8B-</	.
16cc\ 16c\	.	.
*	*8va	*
16b-\ 16B-\	8eeee-\ 8bbb-\ 8eee-\	.
16an\JJ 16B-\	.	.
*	*X8va	*
=150	=150	=150
16G\LL 16E-\	8b-</ 8B-</	.
16ee-\ 16e-\	.	.
*	*8va	*
16ee-\ 16e-\	8gggg\ 8eeee-\ 8ggg\	.
16dd\JJ 16d\	.	.
*	*X8va	*
16E-\LL	8dd</ 8d</	.
16cc\ 16c\	.	.
*	*8va	*
16cc\ 16c\	8gggg\ 8eeee-\ 8ggg\	.
16b-\JJ 16B-\	.	.
*	*X8va	*
=151	=151	=151
16BB-\LL	8b-</ 8B-</	.
16an\ 16An\	.	.
*	*8va	*
16a-X\ 16A-X\	8ffff\ 8dddd\ 8fff\	.
16g\JJ 16G\	.	.
*	*X8va	*
16F\LL 16BB-\	8f</	.
16d\ 16D\	.	.
*	*8va	*
16e-\ 16E-\	8dddd\ 8aaa-\ 8ddd\	.
16en\JJ 16En\	.	.
*	*X8va	*
=152	=152	=152
!	!	!LO:DY:a
16BB-\ 16BBB-\	8f</ 8F</	ff
16en\LL 16En\	.	.
*	*8va	*
16f\ 16F\	8dddd\ 8aaa-\ 8ddd\	.
16g\JJ 16G\	.	.
*	*X8va	*
16BB-\ 16BBB-\	8a-</ 8A-</	.
16b-\LL 16B-\	.	.
*	*8va	*
16a-\ 16A-\	8dddd\ 8aaa-\ 8ddd\	.
16g\JJ 16G\	.	.
*	*X8va	*
=153	=153	=153
16BB-\ 16BBB-\	8a-</ 8A-</	.
16b-\LL 16B-\	.	.
*	*8va	*
16a-\ 16A-\	8dddd\ 8aaa-\ 8ddd\	.
16g\JJ 16G\	.	.
!LO:LB:g=original	!	!
*	*X8va	*
16BB-\ 16BBB-\	8a-</ 8A-</	.
16b-\LL 16B-\	.	.
*	*8va	*
16a-\ 16A-\	8dddd\ 8aaa-\ 8ddd\	.
16g\JJ 16G\	.	.
*	*X8va	*
=154	=154	=154
16BB-\ 16BBB-\	8a-</ 8A-</	.
16g\LL 16G\	.	.
*	*8va	*
16a-\ 16A-\	8dddd\ 8aaa-\ 8ddd\	.
16cc\JJ 16c\	.	.
*	*X8va	*
16BB-\ 16BBB-\	8cc</ 8c</	.
16b-\LL 16B-\	.	.
*	*8va	*
16b-\ 16B-\	8dddd\ 8aaa-\ 8ddd\	.
16a-\JJ 16A-\	.	.
*	*X8va	*
=155	=155	=155
!LO:TX:a:t=I	!	!
*>H1	*	*
16EE-\	8a-</ 8A-</	>
16g\LL 16G\	.	.
*	*8va	*
16g\ 16G\	8eeee-\ 8bbb-\ 8eee-\	.
16f#X\JJ 16F#X\	.	.
*	*X8va	*
16EE-\	8g</ 8G</	.
16B-\LL 16BB-\	.	.
*	*8va	*
16e-\ 16E-\	8eeee-\ 8bbb-\ 8eee-\	]]
16fn\JJ 16Fn\	.	.
*	*X8va	*
=156:|!	=156:|!	=156:|!
!LO:TX:a:t=II	!	!
*>H2	*	*
16EE-\	8a-</ 8A-</	.
16g\LL 16G\	.	.
*	*8va	*
16g\ 16G\	8eeee-\ 8bbb-\ 8eee-\	.
16f#X\JJ 16F#X\	.	.
*	*X8va	*
16EE-\LL	8g</ 8G</	.
*clefG2	*	*
16ee-\JJ 16e-\	.	.
8r	16eee-\LL 16ee-\	.
*	*8va	*
.	16eeee-\JJ 16eee-\	.
*	*X8va	*
*clefF4	*	*
=157||	=157||	=157||
*>I	*	*
!LO:TX:t=P:problem=mixed beam	!	!
16AAA-/LL	16r	<
16c\	16eee-\LL 16cc\	.
16Bn\ 16AA-\	16ddd\ 16bn\	.
16c\JJ	16eee-\JJ 16cc\	.
16d\LL 16AA-\	16fff\LL 16dd\	[ >
16c\	16eee-\ 16cc\	.
16B-X\ 16AA-\	16ddd\ 16b-X\	.
16A-\JJ	16ccc\JJ 16a-\	]]
=158	=158	=158
16EE-/ 16GGG/	16bb-\LL 16g\	<
16r	16e-\JJ	.
*clefG2	*	*
16ee-\ 16e-\	16r	.
16r	16eee-\LL 16ee-\	.
*	*8va	*
8r	16eeee-\ 16eee-\	[ >
*	*X8va	*
.	16eee-\JJ 16ee-\	.
16ee-\ 16e-\	16r	.
16r	16e-\	]]
*clefF4	*	*
!!LO:PB:g=original
=159	=159	=159
!LO:TX:t=P:problem=mixed beam	!	!
16AAA-/LL<	16r	<
16c\	16eee-\LL 16cc\	.
16Bn\ 16AA-\	16ddd\ 16bn\	.
16c\JJ	16eee-\JJ 16cc\	.
16d\LL 16AA-\	16fff\LL 16dd\	[ >
16c\	16eee-\ 16cc\	.
16B-X\ 16AA-\	16ddd\ 16b-X\	.
16A-\JJ	16ccc\JJ 16a-\	]]
=160	=160	=160
16EE-/ 16EEE-/	16bb-\LL 16g\	<
16r	16e-\JJ	.
*clefG2	*	*
16ee-/ 16e-/	16r	.
16r	16eee-\LL 16ee-\	.
*	*8va	*
8r	16eeee-\ 16eee-\	[ >
*	*X8va	*
.	16eee-\JJ 16ee-\	.
16ee-/ 16e-/	16r	.
16r	16e-\	]]
*clefF4	*	*
=161	=161	=161
!LO:TX:t=P:problem=mixed beam	!	!
16GGG/LL	16r	<
16e-\	16eee-\LL 16ee-\	.
16g\ 16E-\	16ggg\ 16ee-\	.
16f\JJ	16fff\JJ 16dd\	[ >
16e-\LL 16E-\	16eee-\LL 16cc\	.
16d\	16ddd\ 16b-\	.
16c\ 16E-\	16ccc\ 16a-\	.
16B-\JJ	16bb-\JJ 16g\	]]
=162	=162	=162
16BB-/ 16BBB-/	16bb-\LL 16g\	<
16r	16aa-\JJ 16f\	.
16b-\ 16B-\	16r	.
16r	16bb-\LL 16b-\	.
8r	16bbb-\ 16bb-\	[ >
.	16bb-\JJ 16b-\	.
16b-\ 16B-\	16r	.
16r	16B-\	]
=163	=163	=163
!LO:TX:t=P:problem=mixed beam	!	!
16BBB-/LL	16r	<
16B-\	16bb-\LL 16b-\	.
16Bn\ 16BB-\	16bbn\ 16bn\	.
16c\JJ	16ccc\JJ 16cc\	.
16c#X\LL 16BB-\	16ccc#X\LL 16cc#X\	.
16d\	16ddd\ 16dd\	.
16g\ 16d\ 16A-\	16ggg\ 16gg\	>
16f\JJ	16fff\JJ 16ff\	] ]]
!!LO:PB:g=original
=164	=164	=164
!	!LO:TX:t=P:problem=mixed beam	!
8e-\ 8G\	16eee-\LL 16ee-\	<
.	16e-\JJ	.
16r	16r	.
*clefG2	*	*
16ee-/ 16e-/	16eee-\ 16ee-\	.
16r	8eee-\ 8ee-\	.
*clefF4	*	*
!LO:TX:t=P:LO:N:vis=8:problem	!	!
16EE-/ 16EEE-/	.	.
8r	8r	[[
=165||	=165||	=165||
16AAA-/LL	16r	<
16c\	16eee-\LL 16cc\	.
16Bn\ 16AA-\	16ddd\ 16bn\	.
16c/JJ	16eee-\JJ 16cc\	.
16d\LL 16AA-\	16fff\LL 16dd\	[ >
16c\	16eee-\ 16cc\	.
16B-X\ 16AA-\	16ddd\ 16b-X\	.
16A-\JJ	16ccc\JJ 16a-\	]]
=166	=166	=166
16EE-/ 16EEE-/	16bb-\LL 16g\	<
16r	16e-\JJ	.
*clefG2	*	*
16ee-\ 16e-\	16r	.
16r	16eee-\LL 16ee-\	.
*	*8va	*
8r	16eeee-\ 16eee-\	[ >
*	*X8va	*
.	16eee-\JJ 16ee-\	.
16ee-\ 16e-\	16r	.
16r	16e-\	]]
*clefF4	*	*
=167	=167	=167
16CC/LL	16r	<
16e-\	16ggg\LL 16ee-\	.
16d\ 16C\	16fff#X\ 16dd\	.
16e-\JJ	16ggg\JJ 16ee-\	.
16f\LL 16C\	16aaa-\LL 16ff\	.
16e-\	16ggg\ 16ee-\	.
16d\ 16C\	16fffn\ 16dd\	.
16c\JJ	16eee-\JJ 16cc\	.
=168	=168	=168
16GG/ 16GGG/	16ddd\LL 16bn\	<
16r	16g\JJ	[
*clefG2	*	*
16gg\ 16g\	16r	.
16r	16eee-\LL 16ee-\	.
*	*8va	*
8r	16eeee-\ 16eee-\	[ >
*	*X8va	*
.	16eee-\JJ 16ee-\	.
16gg\ 16g\	16r	.
16r	16g\	]]
*clefF4	*	*
=169	=169	=169
16EEn\LL	16r	p <
!	!LO:TX:b:t=espressivo	!
16G\	16bbn\LL 16g\	.
16F#X\ 16EE\	16aa#X\ 16f#X\	.
16G\JJ	16bb\JJ 16g\	.
16An\LL 16EE\	16ccc\LL 16an\	[ >
16G\	16bb\ 16g\	.
16F#\ 16EE\	16aan\ 16f#\	.
16En\JJ	16gg\JJ 16en\	]]
!!LO:PB:g=original
=170	=170	=170
*k[bnenanf#]	*k[bnenanf#]	*
16BB/ 16BBB/	16ff#\LL 16d#X\	<
16r	16B\JJ	.
16b\ 16B\	16r	.
16r	16bb\LL 16b\	.
8r	16bbb\ 16bb\	[ >
.	16bb\JJ 16b\	.
16b\ 16B\	16r	.
16r	16B\	]]
=171	=171	=171
16EE\LL	16r	>
16G\	16bb\LL 16g\	.
16F#\ 16EE\	16aa#X\ 16f#X\	.
16G\JJ	16bb\JJ 16g\	.
16BB\LL 16BBB\	16ff#X\ 16d#X\	]
16B\JJ	16r	.
8r	16b\LL	.
.	16bbb\JJ 16bb\	.
=172	=172	=172
16DD\LL	16r	>
16Fn\	16aa\LL 16fn\	.
16E\ 16DD\	16gg#X\ 16e\	.
16F\JJ	16aa\JJ 16f\	.
16AA\LL 16AAA\	16ee\ 16c#X\	]
16A\JJ	16r	.
8r	16a\LL	.
.	16aaa\JJ 16aa\	.
=173	=173	=173
16CC\LL	16r	<
16E-X\	16gg\LL 16e-X\	>
16D\ 16CC\	16ff#X\ 16d\	.
16E-\JJ	16gg\JJ 16e-\	.
!LO:TX:t=P:problem=mixed beam	!	!
16GG\LL 16GGG\	16dd\ 16B\	]
16G\JJ	16r	.
8r	16g\LL	.
.	16ggg\JJ 16gg\	.
=174	=174	=174
!LO:TX:t=P:problem=mixed beam	!	!
16BBB/LL	16r	.
16D#X\JJ	16ff#\LL 16d#X\	.
16C##X/LL 16BBB/	16ee#X\ 16c##X\	.
16D#/JJ	16ff#\JJ 16d#\	.
!LO:TX:t=P:problem=mixed beam	!	!
16GG/LL 16GGG/	16ddn\ 16B\	.
16G\JJ	16r	.
8r	16g\LL	.
.	16ggg\JJ 16gg\	.
=175	=175	=175
16BBB/LL	16r	.
16D#X/	16ff#\LL 16d#X\	.
16C##X/ 16BBB/	16ee#X\ 16c##X\	.
16D#/JJ	16ff#\JJ 16d#\	.
!LO:TX:t=P:problem=mixed beam	!	!
16GG/LL 16GGG/	16ddn\ 16B\	.
16G\JJ	16r	]
8r	16g\LL	.
.	16ggg\JJ 16gg\	.
!!LO:PB:g=original
=176	=176	=176
16BBB/LL	16r	fff
16D#X/	16ff#\LL 16d#X\	.
16C##X/ 16BBB/	16ee#X\ 16c##X\	.
16D#/JJ	16ff#\JJ 16d#\	.
8D#/L 8BBB/	16r	.
.	16ff#\ 16dd#X\ 16d#\	.
8A/J 8BB/	16r	.
.	16ff#\ 16dd#\ 16d#\	.
=177	=177	=177
8D#X/L 8BBB/	16r	.
.	16ff#\LL 16dd#X\ 16d#X\	.
8A/J 8BB/	16r	.
.	16ff#\ 16dd#\ 16d#\	.
8D#/L 8BBB/	16r	.
.	16ff#\ 16dd#\ 16d#\	.
8A/J 8BB/	16r	.
.	16ff#\JJ 16dd#\ 16d#\	.
=178	=178	=178
*k[fnb-e-a-]	*k[fnb-e-a-]	*
!	!LO:TX:t=P:problem=mixed beam	!
8E-\ 8BBB-\	8gg\L 8ee-X\ 8e-X^^\	.
!	!LO:TX:a:t=martellato.	!
16GG\LL 16GGG\	16G</L	.
16AA-\JJ 16AAA-\	16A-</JJ	.
16BB-\LL 16BBB-\	16B-</LL	.
16C\ 16CC\	16c</	.
16BB-\ 16BBB-\	16B-</	.
16AAn\JJ 16AAAn\	16An</JJ	.
=179	=179	=179
16BB-\LL 16BBB-\	16B-</LL	.
16C\ 16CC\	16c</	.
16BB-\ 16BBB-\	16B-</	.
16AAn\JJ 16AAAn\	16An</JJ	.
!	!LO:TX:t=P:problem=mixed beam	!
8BB-\L 8BBB-\	8B-</L	.
8BB-\J 8BBB-\	8gg\J 8ee-\ 8e-^^\	.
=180	=180	=180
!	!LO:TX:t=P:problem=mixed beam	!
8BBB-/ 8BBBB-/	8bb-\L 8ee-\ 8g^^\	.
16GG\LL 16GGG\	16G</L	.
16AA-\JJ 16AAA-\	16A-</JJ	.
16BB-\LL 16BBB-\	16B-</LL	.
16C\ 16CC\	16c</	.
16BB-\ 16BBB-\	16B-</	.
16AAn\JJ 16AAAn\	16An</JJ	.
=181	=181	=181
16BB-\LL 16BBB-\	16B-</LL	.
16C\ 16CC\	16c</	.
16BB-\ 16BBB-\	16B-</	.
16AAn\JJ 16AAAn\	16An</JJ	.
!	!LO:TX:t=P:problem=mixed beam	!
8BB-\L 8BBB-\	8B-</L	.
8BB-\J 8BBB-\	8bb-\J 8ee-\ 8g^^\	.
=182	=182	=182
!	!LO:TX:t=P:problem=mixed beam	!
8BBB-/L 8BBBB-/	8eee-\L 8gg\ 8ee-\	.
16GG/L 16GGG/	16G</L	.
16AA-/JJ 16AAA-/	16c</JJ	.
4BB-/ 4BBB-/	8B-</L	.
!	!LO:TX:t=P:problem=mixed beam	!
.	8bb-\J 8ee-\ 8g\	.
!!LO:PB:g=original
=183	=183	=183
!	!LO:TX:t=P:problem=mixed beam	!
8BBB-/L 8BBBB-/	8gg/L 8b-/ 8e-/	.
16GG/L 16GGG/	16G</L	.
16AA-/JJ 16AAA-/	16A-</JJ	.
!	!LO:TX:t=P:problem=mixed beam	!
4BB-/ 4BBB-/	8B-</L	.
.	8ee-/J 8g/ 8e-/	.
=184	=184	=184
!	!LO:N:vis=2.	!
8BBB-/L 8BBBB-/	[2bb-\ 2ee-\ [2f\	.
16BB-/L 16BBB-/	.	.
16E-/JJ 16EE-/	.	.
16F\LL 16FF\	.	.
16B-\ 16BB-\	.	.
16e-\ 16E-\	.	.
16f\JJ 16F\	.	.
=185	=185	=185
8b-\ 8B-\	8bb-\] 8dd\ 8f\]	.
8r	8r	.
4BB-/ 4BBB-/	4b-/ 4d/ 4A-/	.
=186	=186	=186
!LO:TX:t=P:problem=pauza osemkowa na początku taktu	!	!
16EE-/ 16EEE-/	8ee-/ 8b-/ 8e-/ 8G/	.
16r	.	.
!	!LO:TX:b:t=semmi forza.	!
16FF\LL 16DD\ 16BBBn\ 16GGG\	16r<	.
16r	16Bn</LL 16G</ 16D</ 16BBn</	.
16C\ 16GG\ 16EE-\ 16CC\	16r<	.
16r	16c</ 16G</ 16E-</ 16C</	.
16BB-X\JJ 16FF\ 16DD\ 16BBB-X\	16r<	.
16r	16d</JJ 16B-X</ 16F</ 16D</	.
=187	=187	=187
16E-\LL 16BB-\ 16GG\ 16EE-\	16r<	.
!	!LO:TX:t=P:problem=mixed beam	!
16r	16e-</LL 16B-</ 16G</ 16E-</	.
16G\ 16D\ 16BBn\ 16GG\	16r<	.
16r	16bn\JJ 16g\ 16d\ 16Bn\	.
16c\ 16G\ 16E-\ 16C\	16r	.
16r	16cc\LL 16g\ 16e-\ 16c\	.
16B-\JJ 16F\ 16D\ 16BB-X\	16r	.
16r	16dd\JJ 16b-X\ 16f\ 16d\	.
=188	=188	=188
16e-\ 16B-\ 16G\ 16E-\	16r	.
16r	16ee-\LL 16b-\ 16g\ 16e-\	.
*clefG2	*	*
16g/LL 16d/ 16Bn/ 16G/	16r	.
16r	16bbn\ 16gg\ 16dd\ 16bn\	.
16cc/ 16g/ 16e-/ 16c/	16r	.
16r	16ccc\ 16gg\ 16ee-\ 16cc\	.
16b-/JJ 16f/ 16d/ 16B-X/	16r	.
16r	16ddd\JJ 16bb-X\ 16ff\ 16dd\	.
=189	=189	=189
16ee-\LL 16b-\ 16g\ 16e-\	16r	.
16r	16eee-\LL 16bb-\ 16gg\ 16ee-\	.
16gg\ 16dd\ 16bn\ 16g\	16r	.
*	*8va	*
16r	16bbb-\ 16ggg\ 16ddd\ 16bbn\	.
16ccc\ 16gg\ 16ee-\ 16cc\	16r	.
16r	16cccc\ 16ggg\ 16eee-\ 16ccc\	.
16bb-\JJ 16ff\ 16dd\ 16b-X\	16r	.
16r	16dddd\JJ 16bbb-X\ 16fff\ 16ddd\	.
!!LO:PB:g=original
=190	=190	=190
*clefF4	*	*
*clefG2	*	*
16eee-\LL 16bb-\ 16gg\ 16ee-\	16r	.
16r	16eeee-\LL 16bbb-\ 16ggg\ 16eee-\	.
16bb-\ 16ff\ 16dd\ 16b-\	16r	.
16r	16bbb-\ 16fff\ 16ddd\ 16bb-\	.
*	*X8va	*
!	!LO:TX:a:t=loco	!
16ee-\ 16b-\ 16g\ 16e-\	16r	.
16r	16eee-\ 16bb-\ 16gg\ 16ee-\	.
16b-\JJ 16f\ 16d\ 16B-\	16r	.
16r	16bb-\JJ 16ff\ 16dd\ 16b-\	.
*clefF4	*	*
=191	=191	=191
16e-\LL 16B-\ 16G\ 16E-\	16r	.
16r	16ee-/LL 16b-/ 16g/ 16e-/	.
16B-\ 16F\ 16D\ 16BB-\	16r	.
16r	16b-/JJ 16f/ 16d/ 16B-/	.
16E-\ 16BB-\ 16GG\ 16EE-\	16r<	.
16r	16e-</LL 16B-</ 16G</ 16E-</	.
16BB-\JJ 16FF\ 16DD\ 16BBB-\	16r<	.
16r	16B-</JJ 16F</ 16D</ 16BB-</	.
=192	=192	=192
4EE-\ 4EEE-\	4G</ 4E-</ 4BB-</ 4GG</	.
4e-\ 4B-\ 4E-\	4gg\ 4ee-\ 4b-\ 4g\	.
=193	=193	=193
4E-\ 4BB-\ 4EE-\	4g\ 4e-\ 4B-\ 4G\	.
*clefG2	*	*
4gg\ 4ee-\ 4b-\ 4e-\	4ggg\ 4eee-\ 4bb-\ 4gg\ 4ee-\	.
=194	=194	=194
!LO:TX:a:t=Fine.	!	!
!LO:TX:t=P:2\right:problem	!	!
16qqc\ 16qqC\	16qqcc</	.
*2\right	*	*
2c\ 2C\	2cc</	.
==	==	==
*-	*-	*-
!!!system-decoration: [(s1,s2)]
!!!RDF**kern: > = above
!!!RDF**kern: < = below
!!!RDF**dynam: p = p.
!!!RDF**dynam: pp = pp.
!!!RDF**kern: | = vertical stroke
!!!EED: Leszek Kubiak
!!!EEV: 2021-05-19
!!!ENC: Tomasz Grochalski
!!!END: 2021-05-02
!!!YEC: Copyright 2022 Narodowy Instytut Fryderyka Chopina (https://polishscores.org)
!!!YEM: License CC-BY-4.0 (https://creativecommons.org/licenses/by/4.0)
